; generated by Slic3r 0.9.9-dev on 2013-10-10 at 19:38:56

; layer_height = 0.2
; perimeters = 2
; top_solid_layers = 3
; bottom_solid_layers = 3
; fill_density = 0.15
; perimeter_speed = 40
; infill_speed = 75
; travel_speed = 200
; nozzle_diameter = 0.4
; filament_diameter = 3.5
; extrusion_multiplier = 1
; perimeters extrusion width = 0.67mm
; infill extrusion width = 0.67mm
; solid infill extrusion width = 0.67mm
; top infill extrusion width = 0.67mm
; first layer extrusion width = 0.45mm

G21 ; set units to millimeters
M107 ; disable fan
M104 S210 ; set temperature
G28 ; home all axes
G1 Z5 F5000 ; lift nozzle
M109 S210 ; wait for temperature to be reached
G90 ; use absolute coordinates
G92 E0 ; reset extrusion distance
M82 ; use absolute distances for extrusion
G1 F1800.000 E-0.20000 ; retract
G92 E0 ; reset extrusion distance
G1 Z0.300 F12000.000 ; move to next layer (0)
G1 X71.040 Y51.030 ; move to first skirt point
G1 F1800.000 E0.20000 ; compensate retraction
G1 X71.600 Y50.330 F1200.000 E0.21228 ; skirt
G1 X71.810 Y50.110 E0.21644 ; skirt
G1 X72.260 Y49.700 E0.22478 ; skirt
G1 X72.730 Y49.320 E0.23306 ; skirt
G1 X78.590 Y45.460 E0.32917 ; skirt
G1 X78.860 Y45.300 E0.33347 ; skirt
G1 X79.420 Y45.030 E0.34199 ; skirt
G1 X79.700 Y44.910 E0.34616 ; skirt
G1 X80.290 Y44.710 E0.35469 ; skirt
G1 X80.890 Y44.560 E0.36316 ; skirt
G1 X81.500 Y44.460 E0.37163 ; skirt
G1 X96.140 Y42.730 E0.57355 ; skirt
G1 X97.000 Y42.680 E0.58535 ; skirt
G1 X103.000 Y42.680 E0.66753 ; skirt
G1 X103.860 Y42.730 E0.67933 ; skirt
G1 X118.480 Y44.460 E0.88098 ; skirt
G1 X119.090 Y44.560 E0.88945 ; skirt
G1 X119.390 Y44.630 E0.89367 ; skirt
G1 X119.980 Y44.800 E0.90208 ; skirt
G1 X120.560 Y45.030 E0.91062 ; skirt
G1 X121.110 Y45.300 E0.91901 ; skirt
G1 X121.640 Y45.620 E0.92749 ; skirt
G1 X127.000 Y49.150 E1.01540 ; skirt
G1 X127.500 Y49.500 E1.02376 ; skirt
G1 X127.730 Y49.690 E1.02785 ; skirt
G1 X128.170 Y50.110 E1.03618 ; skirt
G1 X128.580 Y50.550 E1.04442 ; skirt
G1 X128.770 Y50.790 E1.04861 ; skirt
G1 X129.120 Y51.280 E1.05686 ; skirt
G1 X156.140 Y93.020 E1.73791 ; skirt
G1 X156.450 Y93.540 E1.74620 ; skirt
G1 X156.710 Y94.080 E1.75441 ; skirt
G1 X156.930 Y94.640 E1.76265 ; skirt
G1 X157.100 Y95.220 E1.77093 ; skirt
G1 X157.220 Y95.800 E1.77904 ; skirt
G1 X157.290 Y96.400 E1.78731 ; skirt
G1 X157.320 Y97.000 E1.79554 ; skirt
G1 X157.320 Y103.000 E1.87772 ; skirt
G1 X157.290 Y103.610 E1.88609 ; skirt
G1 X157.220 Y104.210 E1.89436 ; skirt
G1 X157.090 Y104.800 E1.90264 ; skirt
G1 X156.920 Y105.390 E1.91105 ; skirt
G1 X144.060 Y138.200 E2.39374 ; skirt
G1 X143.650 Y139.000 E2.40605 ; skirt
G1 X143.140 Y139.740 E2.41836 ; skirt
G1 X142.550 Y140.410 E2.43059 ; skirt
G1 X141.880 Y141.010 E2.44291 ; skirt
G1 X141.390 Y141.360 E2.45115 ; skirt
G1 X136.100 Y144.850 E2.53796 ; skirt
G1 X135.560 Y145.170 E2.54656 ; skirt
G1 X135.000 Y145.440 E2.55507 ; skirt
G1 X105.330 Y156.940 E2.99092 ; skirt
G1 X105.000 Y157.040 E2.99564 ; skirt
G1 X104.340 Y157.190 E3.00491 ; skirt
G1 X103.680 Y157.290 E3.01406 ; skirt
G1 X103.340 Y157.310 E3.01872 ; skirt
G1 X97.000 Y157.320 E3.10556 ; skirt
G1 X96.330 Y157.290 E3.11475 ; skirt
G1 X95.990 Y157.250 E3.11944 ; skirt
G1 X95.330 Y157.120 E3.12865 ; skirt
G1 X94.680 Y156.940 E3.13789 ; skirt
G1 X64.990 Y145.440 E3.57400 ; skirt
G1 X64.430 Y145.170 E3.58251 ; skirt
G1 X63.890 Y144.850 E3.59111 ; skirt
G1 X58.350 Y141.190 E3.68205 ; skirt
G1 X57.880 Y140.820 E3.69025 ; skirt
G1 X57.440 Y140.410 E3.69848 ; skirt
G1 X56.850 Y139.740 E3.71071 ; skirt
G1 X56.670 Y139.500 E3.71482 ; skirt
G1 X56.340 Y138.990 E3.72314 ; skirt
G1 X56.190 Y138.730 E3.72725 ; skirt
G1 X55.930 Y138.200 E3.73534 ; skirt
G1 X43.080 Y105.380 E4.21810 ; skirt
G1 X42.910 Y104.800 E4.22638 ; skirt
G1 X42.780 Y104.210 E4.23466 ; skirt
G1 X42.710 Y103.610 E4.24293 ; skirt
G1 X42.680 Y103.000 E4.25130 ; skirt
G1 X42.680 Y97.000 E4.33348 ; skirt
G1 X42.710 Y96.400 E4.34171 ; skirt
G1 X42.780 Y95.800 E4.34998 ; skirt
G1 X42.900 Y95.220 E4.35809 ; skirt
G1 X43.070 Y94.640 E4.36637 ; skirt
G1 X43.410 Y93.810 E4.37866 ; skirt
G1 X43.860 Y93.020 E4.39111 ; skirt
G1 X71.003 Y51.084 E5.07532 ; skirt
G1 X71.410 Y51.260 F12000.000 ; move to first skirt point
G1 X72.010 Y50.530 F1200.000 E5.08827 ; skirt
G1 X72.470 Y50.090 E5.09698 ; skirt
G1 X72.960 Y49.700 E5.10556 ; skirt
G1 X73.220 Y49.520 E5.10989 ; skirt
G1 X78.820 Y45.830 E5.20175 ; skirt
G1 X79.590 Y45.430 E5.21364 ; skirt
G1 X80.410 Y45.130 E5.22560 ; skirt
G1 X80.980 Y44.990 E5.23364 ; skirt
G1 X81.550 Y44.900 E5.24154 ; skirt
G1 X96.190 Y43.170 E5.44346 ; skirt
G1 X97.000 Y43.120 E5.45458 ; skirt
G1 X103.000 Y43.120 E5.53676 ; skirt
G1 X103.810 Y43.170 E5.54787 ; skirt
G1 X118.430 Y44.900 E5.74952 ; skirt
G1 X119.000 Y44.990 E5.75743 ; skirt
G1 X119.570 Y45.130 E5.76546 ; skirt
G1 X120.120 Y45.320 E5.77343 ; skirt
G1 X120.380 Y45.430 E5.77730 ; skirt
G1 X120.650 Y45.550 E5.78135 ; skirt
G1 X121.160 Y45.830 E5.78932 ; skirt
G1 X126.760 Y49.520 E5.88118 ; skirt
G1 X127.270 Y49.890 E5.88981 ; skirt
G1 X127.750 Y50.300 E5.89845 ; skirt
G1 X128.190 Y50.760 E5.90717 ; skirt
G1 X128.390 Y51.010 E5.91156 ; skirt
G1 X128.750 Y51.520 E5.92011 ; skirt
G1 X155.770 Y93.260 E6.60116 ; skirt
G1 X156.060 Y93.750 E6.60895 ; skirt
G1 X156.310 Y94.260 E6.61673 ; skirt
G1 X156.600 Y95.050 E6.62826 ; skirt
G1 X156.790 Y95.880 E6.63992 ; skirt
G1 X156.860 Y96.440 E6.64765 ; skirt
G1 X156.880 Y97.000 E6.65533 ; skirt
G1 X156.880 Y103.000 E6.73751 ; skirt
G1 X156.850 Y103.640 E6.74629 ; skirt
G1 X156.760 Y104.280 E6.75514 ; skirt
G1 X156.610 Y104.900 E6.76388 ; skirt
G1 X156.510 Y105.210 E6.76834 ; skirt
G1 X143.660 Y138.020 E7.25097 ; skirt
G1 X143.540 Y138.280 E7.25490 ; skirt
G1 X143.270 Y138.770 E7.26256 ; skirt
G1 X142.960 Y139.240 E7.27027 ; skirt
G1 X142.620 Y139.690 E7.27800 ; skirt
G1 X142.030 Y140.300 E7.28962 ; skirt
G1 X141.600 Y140.660 E7.29730 ; skirt
G1 X141.150 Y140.990 E7.30495 ; skirt
G1 X135.860 Y144.480 E7.39175 ; skirt
G1 X135.610 Y144.640 E7.39582 ; skirt
G1 X134.830 Y145.040 E7.40782 ; skirt
G1 X105.190 Y156.520 E7.84319 ; skirt
G1 X104.880 Y156.620 E7.84765 ; skirt
G1 X104.260 Y156.760 E7.85636 ; skirt
G1 X103.630 Y156.850 E7.86508 ; skirt
G1 X103.320 Y156.870 E7.86933 ; skirt
G1 X97.000 Y156.880 E7.95590 ; skirt
G1 X96.370 Y156.850 E7.96453 ; skirt
G1 X95.740 Y156.760 E7.97325 ; skirt
G1 X95.120 Y156.620 E7.98196 ; skirt
G1 X94.520 Y156.410 E7.99066 ; skirt
G1 X65.160 Y145.040 E8.42191 ; skirt
G1 X64.380 Y144.640 E8.43392 ; skirt
G1 X64.130 Y144.480 E8.43798 ; skirt
G1 X58.840 Y140.990 E8.52479 ; skirt
G1 X58.380 Y140.660 E8.53254 ; skirt
G1 X57.960 Y140.300 E8.54012 ; skirt
G1 X57.370 Y139.690 E8.55174 ; skirt
G1 X57.030 Y139.240 E8.55947 ; skirt
G1 X56.720 Y138.770 E8.56718 ; skirt
G1 X56.330 Y138.020 E8.57876 ; skirt
G1 X43.490 Y105.210 E9.06135 ; skirt
G1 X43.390 Y104.900 E9.06581 ; skirt
G1 X43.240 Y104.280 E9.07455 ; skirt
G1 X43.150 Y103.640 E9.08340 ; skirt
G1 X43.120 Y103.000 E9.09217 ; skirt
G1 X43.120 Y97.000 E9.17436 ; skirt
G1 X43.140 Y96.440 E9.18203 ; skirt
G1 X43.210 Y95.880 E9.18976 ; skirt
G1 X43.400 Y95.050 E9.20142 ; skirt
G1 X43.580 Y94.520 E9.20909 ; skirt
G1 X43.810 Y94.000 E9.21688 ; skirt
G1 X44.230 Y93.260 E9.22853 ; skirt
G1 X71.374 Y51.315 E9.91286 ; skirt
G1 X71.770 Y51.520 F12000.000 ; move to first skirt point
G1 X72.330 Y50.830 F1200.000 E9.92503 ; skirt
G1 X72.760 Y50.420 E9.93317 ; skirt
G1 X73.220 Y50.050 E9.94126 ; skirt
G1 X78.810 Y46.360 E10.03300 ; skirt
G1 X79.600 Y45.910 E10.04545 ; skirt
G1 X80.150 Y45.680 E10.05362 ; skirt
G1 X80.430 Y45.590 E10.05765 ; skirt
G1 X81.010 Y45.430 E10.06589 ; skirt
G1 X81.600 Y45.340 E10.07406 ; skirt
G1 X96.240 Y43.610 E10.27598 ; skirt
G1 X97.000 Y43.560 E10.28641 ; skirt
G1 X103.000 Y43.560 E10.36860 ; skirt
G1 X103.760 Y43.610 E10.37903 ; skirt
G1 X118.380 Y45.340 E10.58068 ; skirt
G1 X118.970 Y45.430 E10.58885 ; skirt
G1 X119.260 Y45.500 E10.59294 ; skirt
G1 X119.830 Y45.680 E10.60112 ; skirt
G1 X120.380 Y45.910 E10.60929 ; skirt
G1 X120.910 Y46.190 E10.61750 ; skirt
G1 X121.160 Y46.350 E10.62157 ; skirt
G1 X126.770 Y50.050 E10.71361 ; skirt
G1 X127.450 Y50.620 E10.72577 ; skirt
G1 X128.040 Y51.280 E10.73789 ; skirt
G1 X128.390 Y51.760 E10.74603 ; skirt
G1 X155.410 Y93.500 E11.42708 ; skirt
G1 X155.690 Y93.990 E11.43481 ; skirt
G1 X155.940 Y94.510 E11.44271 ; skirt
G1 X156.210 Y95.310 E11.45428 ; skirt
G1 X156.340 Y95.870 E11.46215 ; skirt
G1 X156.410 Y96.430 E11.46988 ; skirt
G1 X156.440 Y97.000 E11.47770 ; skirt
G1 X156.440 Y103.000 E11.55988 ; skirt
G1 X156.380 Y103.900 E11.57223 ; skirt
G1 X156.330 Y104.200 E11.57640 ; skirt
G1 X156.190 Y104.780 E11.58457 ; skirt
G1 X156.100 Y105.070 E11.58873 ; skirt
G1 X143.360 Y137.600 E12.06725 ; skirt
G1 X143.000 Y138.370 E12.07889 ; skirt
G1 X142.540 Y139.080 E12.09048 ; skirt
G1 X142.180 Y139.520 E12.09827 ; skirt
G1 X141.990 Y139.720 E12.10204 ; skirt
G1 X141.790 Y139.920 E12.10592 ; skirt
G1 X141.360 Y140.290 E12.11369 ; skirt
G1 X140.910 Y140.620 E12.12133 ; skirt
G1 X135.620 Y144.110 E12.20814 ; skirt
G1 X135.140 Y144.400 E12.21582 ; skirt
G1 X134.650 Y144.640 E12.22329 ; skirt
G1 X105.050 Y156.110 E12.65810 ; skirt
G1 X104.470 Y156.270 E12.66634 ; skirt
G1 X104.180 Y156.330 E12.67040 ; skirt
G1 X103.890 Y156.380 E12.67443 ; skirt
G1 X103.300 Y156.430 E12.68254 ; skirt
G1 X97.000 Y156.440 E12.76883 ; skirt
G1 X96.110 Y156.380 E12.78105 ; skirt
G1 X95.530 Y156.270 E12.78913 ; skirt
G1 X94.950 Y156.110 E12.79737 ; skirt
G1 X65.340 Y144.640 E13.23231 ; skirt
G1 X64.850 Y144.400 E13.23978 ; skirt
G1 X64.370 Y144.110 E13.24746 ; skirt
G1 X59.080 Y140.620 E13.33427 ; skirt
G1 X58.410 Y140.110 E13.34580 ; skirt
G1 X58.000 Y139.720 E13.35355 ; skirt
G1 X57.620 Y139.300 E13.36131 ; skirt
G1 X57.290 Y138.850 E13.36895 ; skirt
G1 X56.990 Y138.360 E13.37682 ; skirt
G1 X56.630 Y137.600 E13.38834 ; skirt
G1 X43.900 Y105.070 E13.86681 ; skirt
G1 X43.740 Y104.490 E13.87505 ; skirt
G1 X43.620 Y103.900 E13.88330 ; skirt
G1 X43.560 Y103.000 E13.89565 ; skirt
G1 X43.560 Y97.000 E13.97783 ; skirt
G1 X43.590 Y96.430 E13.98565 ; skirt
G1 X43.660 Y95.870 E13.99338 ; skirt
G1 X43.790 Y95.310 E14.00126 ; skirt
G1 X44.060 Y94.510 E14.01282 ; skirt
G1 X44.440 Y93.740 E14.02458 ; skirt
G1 X44.590 Y93.500 E14.02846 ; skirt
G1 X71.732 Y51.574 E14.71256 ; skirt
G1 F1800.000 E14.51256 ; retract
G92 E0 ; reset extrusion distance
G1 X81.590 Y53.423 F12000.000 ; move to first fill point
G1 F1800.000 E0.20000 ; compensate retraction
M204 S9000 ; adjust acceleration
G1 X81.790 Y53.622 F1350.000 E0.20388 ; fill
G1 X81.981 Y54.436 E0.21536 ; fill
G1 X81.214 Y53.670 E0.23025 ; fill
G1 X80.839 Y53.917 E0.23643 ; fill
G1 X82.236 Y55.314 E0.26356 ; fill
G1 X82.491 Y56.192 E0.27612 ; fill
G1 X80.463 Y54.165 E0.31551 ; fill
G1 X80.088 Y54.412 E0.32168 ; fill
G1 X82.746 Y57.070 E0.37332 ; fill
G1 X83.001 Y57.948 E0.38588 ; fill
G1 X79.712 Y54.659 E0.44976 ; fill
G1 X79.336 Y54.907 E0.45594 ; fill
G1 X83.256 Y58.826 E0.53208 ; fill
G1 X83.511 Y59.704 E0.54464 ; fill
G1 X78.961 Y55.154 E0.63302 ; fill
G1 X78.585 Y55.401 E0.63920 ; fill
G1 X83.766 Y60.582 E0.73984 ; fill
G1 X84.021 Y61.460 E0.75240 ; fill
G1 X78.210 Y55.649 E0.86528 ; fill
G1 X78.343 Y56.405 E0.87583 ; fill
G1 X84.276 Y62.338 E0.99108 ; fill
G1 X84.532 Y63.217 E1.00364 ; fill
G1 X78.598 Y57.283 E1.11890 ; fill
G1 X78.853 Y58.161 E1.13145 ; fill
G1 X84.881 Y64.189 E1.24854 ; fill
G1 X85.231 Y65.162 E1.26274 ; fill
G1 X79.108 Y59.039 E1.38168 ; fill
G1 X79.363 Y59.917 E1.39424 ; fill
G1 X85.582 Y66.135 E1.51502 ; fill
G1 X85.932 Y67.109 E1.52923 ; fill
G1 X79.618 Y60.795 E1.65187 ; fill
G1 X79.874 Y61.673 E1.66443 ; fill
G1 X86.283 Y68.082 E1.78892 ; fill
G1 X86.633 Y69.056 E1.80313 ; fill
G1 X80.129 Y62.551 E1.92947 ; fill
G1 X80.384 Y63.429 E1.94203 ; fill
G1 X86.983 Y70.029 E2.07022 ; fill
G1 X87.334 Y71.002 E2.08443 ; fill
G1 X80.639 Y64.307 E2.21447 ; fill
G1 X80.971 Y65.262 E2.22836 ; fill
G1 X87.685 Y71.976 E2.35877 ; fill
G1 X88.160 Y73.074 E2.37520 ; fill
G1 X81.321 Y66.235 E2.50803 ; fill
G1 X81.672 Y67.209 E2.52224 ; fill
G1 X88.635 Y74.172 E2.65750 ; fill
G1 X89.110 Y75.270 E2.67393 ; fill
G1 X82.022 Y68.182 E2.81161 ; fill
G1 X82.372 Y69.156 E2.82582 ; fill
G1 X89.585 Y76.368 E2.96592 ; fill
G1 X90.061 Y77.467 E2.98236 ; fill
G1 X82.723 Y70.129 E3.12488 ; fill
G1 X83.073 Y71.102 E3.13909 ; fill
G1 X90.536 Y78.565 E3.28404 ; fill
G1 X91.011 Y79.663 E3.30048 ; fill
G1 X83.424 Y72.076 E3.44785 ; fill
G1 X83.774 Y73.049 E3.46206 ; fill
G1 X91.526 Y80.801 E3.61263 ; fill
G1 X92.173 Y82.071 E3.63221 ; fill
G1 X84.196 Y74.094 E3.78715 ; fill
G1 X84.672 Y75.192 E3.80359 ; fill
G1 X92.820 Y83.341 E3.96187 ; fill
G1 X93.467 Y84.611 E3.98145 ; fill
G1 X85.147 Y76.290 E4.14307 ; fill
G1 X85.622 Y77.389 E4.15950 ; fill
G1 X94.115 Y85.881 E4.32447 ; fill
G1 X94.762 Y87.151 E4.34404 ; fill
G1 X86.097 Y78.487 E4.51234 ; fill
G1 X86.572 Y79.585 E4.52878 ; fill
G1 X95.409 Y88.421 E4.70042 ; fill
G1 X96.237 Y89.872 F12000.000 ; move to first fill point
M204 S9000 ; adjust acceleration
G1 X87.048 Y80.683 F1350.000 E4.87891 ; fill
G1 X87.523 Y81.781 E4.89534 ; fill
G1 X103.686 Y97.944 E5.20929 ; fill
G1 X103.719 Y97.977 F12000.000 ; move to first fill point
M204 S9000 ; adjust acceleration
G1 X107.764 Y102.023 F1350.000 E5.28787 ; fill
G1 X108.387 Y102.023 E5.29643 ; fill
G1 X104.342 Y97.977 E5.37501 ; fill
G1 X104.965 Y97.977 E5.38357 ; fill
G1 X109.010 Y102.023 E5.46215 ; fill
G1 X109.633 Y102.023 E5.47070 ; fill
G1 X105.588 Y97.977 E5.54928 ; fill
G1 X106.211 Y97.977 E5.55784 ; fill
G1 X110.256 Y102.023 E5.63642 ; fill
G1 X110.879 Y102.023 E5.64497 ; fill
G1 X106.834 Y97.977 E5.72355 ; fill
G1 X107.457 Y97.977 E5.73211 ; fill
G1 X111.502 Y102.023 E5.81069 ; fill
G1 X112.125 Y102.023 E5.81924 ; fill
G1 X108.079 Y97.977 E5.89782 ; fill
G1 X108.702 Y97.977 E5.90638 ; fill
G1 X112.748 Y102.023 E5.98496 ; fill
G1 X113.371 Y102.023 E5.99352 ; fill
G1 X109.325 Y97.977 E6.07210 ; fill
G1 X109.948 Y97.977 E6.08065 ; fill
G1 X113.994 Y102.023 E6.15923 ; fill
G1 X114.617 Y102.023 E6.16779 ; fill
G1 X110.571 Y97.977 E6.24637 ; fill
G1 X111.194 Y97.977 E6.25492 ; fill
G1 X115.240 Y102.023 E6.33350 ; fill
G1 X115.863 Y102.023 E6.34206 ; fill
G1 X111.817 Y97.977 E6.42064 ; fill
G1 X112.440 Y97.977 E6.42919 ; fill
G1 X116.486 Y102.023 E6.50777 ; fill
G1 X117.108 Y102.023 E6.51633 ; fill
G1 X113.063 Y97.977 E6.59491 ; fill
G1 X113.686 Y97.977 E6.60347 ; fill
G1 X117.731 Y102.023 E6.68205 ; fill
G1 X118.354 Y102.023 E6.69060 ; fill
G1 X114.309 Y97.977 E6.76918 ; fill
G1 X114.932 Y97.977 E6.77774 ; fill
G1 X118.977 Y102.023 E6.85632 ; fill
G1 X119.600 Y102.023 E6.86487 ; fill
G1 X115.555 Y97.977 E6.94345 ; fill
G1 X116.178 Y97.977 E6.95201 ; fill
G1 X120.223 Y102.023 E7.03059 ; fill
G1 X120.846 Y102.023 E7.03914 ; fill
G1 X116.801 Y97.977 E7.11772 ; fill
G1 X117.424 Y97.977 E7.12628 ; fill
G1 X121.469 Y102.023 E7.20486 ; fill
G1 X122.092 Y102.023 E7.21342 ; fill
G1 X118.046 Y97.977 E7.29200 ; fill
G1 X118.669 Y97.977 E7.30055 ; fill
G1 X122.715 Y102.023 E7.37913 ; fill
G1 X123.338 Y102.023 E7.38769 ; fill
G1 X119.292 Y97.977 E7.46627 ; fill
G1 X119.915 Y97.977 E7.47482 ; fill
G1 X123.961 Y102.023 E7.55340 ; fill
G1 X124.584 Y102.023 E7.56196 ; fill
G1 X120.538 Y97.977 E7.64054 ; fill
G1 X121.161 Y97.977 E7.64909 ; fill
G1 X125.207 Y102.023 E7.72767 ; fill
G1 X125.830 Y102.023 E7.73623 ; fill
G1 X121.784 Y97.977 E7.81481 ; fill
G1 X122.407 Y97.977 E7.82337 ; fill
G1 X126.452 Y102.023 E7.90195 ; fill
G1 X127.075 Y102.023 E7.91050 ; fill
G1 X123.030 Y97.977 E7.98908 ; fill
G1 X123.653 Y97.977 E7.99764 ; fill
G1 X127.698 Y102.023 E8.07622 ; fill
G1 X128.321 Y102.023 E8.08477 ; fill
G1 X124.276 Y97.977 E8.16335 ; fill
G1 X124.899 Y97.977 E8.17191 ; fill
G1 X128.944 Y102.023 E8.25049 ; fill
G1 X129.567 Y102.023 E8.25904 ; fill
G1 X125.522 Y97.977 E8.33762 ; fill
G1 X126.145 Y97.977 E8.34618 ; fill
G1 X130.190 Y102.023 E8.42476 ; fill
G1 X130.813 Y102.023 E8.43332 ; fill
G1 X126.768 Y97.977 E8.51190 ; fill
G1 X127.391 Y97.977 E8.52045 ; fill
