; generated by Slic3r 0.9.9-dev on 2013-10-12 at 11:33:23

; layer_height = 0.35
; perimeters = 2
; top_solid_layers = 3
; bottom_solid_layers = 3
; fill_density = 0.15
; perimeter_speed = 50
; infill_speed = 50
; travel_speed = 200
; nozzle_diameter = 0.4
; filament_diameter = 3.5
; extrusion_multiplier = 1
; perimeters extrusion width = 0.42mm
; infill extrusion width = 0.42mm
; solid infill extrusion width = 0.42mm
; top infill extrusion width = 0.42mm
; first layer extrusion width = 0.53mm

G21 ; set units to millimeters
M107 ; disable fan
M104 S210 ; set temperature
G28 ; home all axes
G1 Z5 F5000 ; lift nozzle
M109 S210 ; wait for temperature to be reached
G90 ; use absolute coordinates
G92 E0 ; reset extrusion distance
M82 ; use absolute distances for extrusion
G1 F1800.000 E-0.20000 ; retract
G92 E0 ; reset extrusion distance
G1 Z0.350 F12000.000 ; move to next layer (0)
G1 X71.320 Y51.190 ; move to first skirt point
G1 F1800.000 E0.20000 ; compensate retraction
G1 X71.710 Y50.690 F1500.000 E0.21149 ; skirt
G1 X71.930 Y50.450 E0.21739 ; skirt
G1 X72.390 Y50.000 E0.22905 ; skirt
G1 X72.890 Y49.600 E0.24066 ; skirt
G1 X78.760 Y45.730 E0.36808 ; skirt
G1 X79.550 Y45.320 E0.38421 ; skirt
G1 X80.380 Y45.020 E0.40020 ; skirt
G1 X80.950 Y44.880 E0.41084 ; skirt
G1 X81.540 Y44.780 E0.42168 ; skirt
G1 X96.180 Y43.050 E0.68885 ; skirt
G1 X97.000 Y43.000 E0.70374 ; skirt
G1 X103.000 Y43.000 E0.81247 ; skirt
G1 X103.820 Y43.050 E0.82736 ; skirt
G1 X118.440 Y44.780 E1.09416 ; skirt
G1 X118.730 Y44.820 E1.09947 ; skirt
G1 X119.310 Y44.940 E1.11020 ; skirt
G1 X119.880 Y45.110 E1.12098 ; skirt
G1 X120.430 Y45.320 E1.13165 ; skirt
G1 X120.960 Y45.580 E1.14235 ; skirt
G1 X121.470 Y45.890 E1.15317 ; skirt
G1 X127.090 Y49.600 E1.27521 ; skirt
G1 X127.600 Y50.000 E1.28695 ; skirt
G1 X127.830 Y50.220 E1.29272 ; skirt
G1 X128.060 Y50.450 E1.29862 ; skirt
G1 X128.480 Y50.930 E1.31017 ; skirt
G1 X128.850 Y51.460 E1.32189 ; skirt
G1 X155.870 Y93.200 E2.22299 ; skirt
G1 X156.170 Y93.690 E2.23341 ; skirt
G1 X156.420 Y94.210 E2.24386 ; skirt
G1 X156.620 Y94.740 E2.25413 ; skirt
G1 X156.790 Y95.290 E2.26456 ; skirt
G1 X156.900 Y95.860 E2.27508 ; skirt
G1 X156.970 Y96.430 E2.28549 ; skirt
G1 X157.000 Y97.000 E2.29583 ; skirt
G1 X157.000 Y103.000 E2.40457 ; skirt
G1 X156.970 Y103.650 E2.41636 ; skirt
G1 X156.930 Y103.980 E2.42239 ; skirt
G1 X156.810 Y104.620 E2.43419 ; skirt
G1 X156.630 Y105.250 E2.44606 ; skirt
G1 X143.760 Y138.070 E3.08495 ; skirt
G1 X143.370 Y138.830 E3.10043 ; skirt
G1 X142.890 Y139.540 E3.11596 ; skirt
G1 X142.520 Y139.980 E3.12638 ; skirt
G1 X142.110 Y140.380 E3.13676 ; skirt
G1 X141.680 Y140.760 E3.14716 ; skirt
G1 X141.210 Y141.090 E3.15756 ; skirt
G1 X135.920 Y144.580 E3.27242 ; skirt
G1 X135.410 Y144.890 E3.28323 ; skirt
G1 X134.870 Y145.150 E3.29410 ; skirt
G1 X105.530 Y156.520 E3.86435 ; skirt
G1 X104.910 Y156.730 E3.87621 ; skirt
G1 X104.290 Y156.880 E3.88777 ; skirt
G1 X103.650 Y156.970 E3.89948 ; skirt
G1 X103.320 Y156.990 E3.90547 ; skirt
G1 X97.000 Y157.000 E4.02001 ; skirt
G1 X96.350 Y156.970 E4.03180 ; skirt
G1 X95.720 Y156.880 E4.04334 ; skirt
G1 X95.090 Y156.730 E4.05507 ; skirt
G1 X94.470 Y156.520 E4.06694 ; skirt
G1 X65.120 Y145.150 E4.63736 ; skirt
G1 X64.580 Y144.890 E4.64822 ; skirt
G1 X64.070 Y144.580 E4.65903 ; skirt
G1 X58.540 Y140.930 E4.77911 ; skirt
G1 X58.310 Y140.760 E4.78430 ; skirt
G1 X57.670 Y140.180 E4.79995 ; skirt
G1 X57.470 Y139.980 E4.80508 ; skirt
G1 X57.100 Y139.540 E4.81549 ; skirt
G1 X56.620 Y138.830 E4.83103 ; skirt
G1 X56.350 Y138.330 E4.84132 ; skirt
G1 X56.120 Y137.800 E4.85179 ; skirt
G1 X43.370 Y105.240 E5.48550 ; skirt
G1 X43.190 Y104.620 E5.49720 ; skirt
G1 X43.070 Y103.980 E5.50900 ; skirt
G1 X43.030 Y103.650 E5.51502 ; skirt
G1 X43.000 Y103.000 E5.52682 ; skirt
G1 X43.000 Y97.000 E5.63555 ; skirt
G1 X43.030 Y96.430 E5.64590 ; skirt
G1 X43.100 Y95.860 E5.65630 ; skirt
G1 X43.210 Y95.300 E5.66665 ; skirt
G1 X43.290 Y95.020 E5.67192 ; skirt
G1 X43.580 Y94.210 E5.68752 ; skirt
G1 X43.830 Y93.690 E5.69797 ; skirt
G1 X44.130 Y93.200 E5.70838 ; skirt
G1 X71.279 Y51.252 E6.61392 ; skirt
G1 X71.720 Y51.480 F12000.000 ; move to first skirt point
G1 X72.090 Y51.010 F1500.000 E6.62476 ; skirt
G1 X72.500 Y50.580 E6.63552 ; skirt
G1 X72.950 Y50.190 E6.64632 ; skirt
G1 X73.430 Y49.840 E6.65708 ; skirt
G1 X78.780 Y46.310 E6.77324 ; skirt
G1 X79.570 Y45.860 E6.78972 ; skirt
G1 X80.420 Y45.530 E6.80624 ; skirt
G1 X81.000 Y45.380 E6.81710 ; skirt
G1 X81.600 Y45.280 E6.82812 ; skirt
G1 X96.240 Y43.550 E7.09529 ; skirt
G1 X97.000 Y43.500 E7.10909 ; skirt
G1 X103.000 Y43.500 E7.21783 ; skirt
G1 X103.760 Y43.550 E7.23163 ; skirt
G1 X118.380 Y45.280 E7.49843 ; skirt
G1 X118.680 Y45.320 E7.50392 ; skirt
G1 X119.270 Y45.450 E7.51487 ; skirt
G1 X119.850 Y45.630 E7.52587 ; skirt
G1 X120.410 Y45.860 E7.53684 ; skirt
G1 X120.680 Y45.990 E7.54227 ; skirt
G1 X121.190 Y46.300 E7.55309 ; skirt
G1 X126.800 Y50.000 E7.67488 ; skirt
G1 X127.040 Y50.180 E7.68032 ; skirt
G1 X127.490 Y50.580 E7.69123 ; skirt
G1 X127.700 Y50.790 E7.69661 ; skirt
G1 X128.090 Y51.240 E7.70740 ; skirt
G1 X128.270 Y51.480 E7.71284 ; skirt
G1 X155.610 Y93.710 E8.62455 ; skirt
G1 X155.750 Y93.960 E8.62974 ; skirt
G1 X156.100 Y94.750 E8.64540 ; skirt
G1 X156.270 Y95.300 E8.65583 ; skirt
G1 X156.400 Y95.860 E8.66625 ; skirt
G1 X156.470 Y96.430 E8.67666 ; skirt
G1 X156.500 Y97.000 E8.68700 ; skirt
G1 X156.500 Y103.000 E8.79574 ; skirt
G1 X156.470 Y103.610 E8.80681 ; skirt
G1 X156.390 Y104.210 E8.81778 ; skirt
G1 X156.150 Y105.090 E8.83431 ; skirt
G1 X143.410 Y137.620 E9.46744 ; skirt
G1 X143.050 Y138.390 E9.48285 ; skirt
G1 X142.750 Y138.880 E9.49326 ; skirt
G1 X142.230 Y139.560 E9.50877 ; skirt
G1 X141.830 Y139.970 E9.51915 ; skirt
G1 X141.400 Y140.340 E9.52943 ; skirt
G1 X140.940 Y140.670 E9.53969 ; skirt
G1 X135.650 Y144.160 E9.65455 ; skirt
G1 X134.930 Y144.580 E9.66965 ; skirt
G1 X134.420 Y144.800 E9.67972 ; skirt
G1 X105.350 Y156.060 E10.24469 ; skirt
G1 X104.490 Y156.330 E10.26102 ; skirt
G1 X103.900 Y156.440 E10.27190 ; skirt
G1 X103.300 Y156.490 E10.28281 ; skirt
G1 X97.000 Y156.500 E10.39698 ; skirt
G1 X96.400 Y156.470 E10.40787 ; skirt
G1 X95.810 Y156.390 E10.41866 ; skirt
G1 X95.220 Y156.250 E10.42965 ; skirt
G1 X94.650 Y156.060 E10.44054 ; skirt
G1 X65.570 Y144.800 E11.00568 ; skirt
G1 X65.060 Y144.580 E11.01574 ; skirt
G1 X64.340 Y144.160 E11.03085 ; skirt
G1 X58.820 Y140.510 E11.15078 ; skirt
G1 X58.590 Y140.340 E11.15596 ; skirt
G1 X58.160 Y139.970 E11.16624 ; skirt
G1 X57.760 Y139.560 E11.17662 ; skirt
G1 X57.580 Y139.340 E11.18177 ; skirt
G1 X57.240 Y138.880 E11.19214 ; skirt
G1 X56.940 Y138.390 E11.20255 ; skirt
G1 X56.580 Y137.620 E11.21796 ; skirt
G1 X43.950 Y105.370 E11.84564 ; skirt
G1 X43.750 Y104.800 E11.85658 ; skirt
G1 X43.610 Y104.210 E11.86757 ; skirt
G1 X43.530 Y103.610 E11.87854 ; skirt
G1 X43.500 Y103.000 E11.88961 ; skirt
G1 X43.500 Y97.000 E11.99835 ; skirt
G1 X43.530 Y96.430 E12.00869 ; skirt
G1 X43.600 Y95.860 E12.01910 ; skirt
G1 X43.730 Y95.300 E12.02952 ; skirt
G1 X43.900 Y94.750 E12.03995 ; skirt
G1 X44.250 Y93.960 E12.05561 ; skirt
G1 X44.540 Y93.470 E12.06593 ; skirt
G1 X71.678 Y51.542 E12.97106 ; skirt
G1 F1800.000 E12.77106 ; retract
G92 E0 ; reset extrusion distance
G1 X77.294 Y55.380 F12000.000 ; move to first perimeter point
G1 F1800.000 E0.20000 ; compensate retraction
M204 S9000 ; adjust acceleration
G1 X82.206 Y52.145 F1050.000 E0.30658 ; perimeter
G1 X82.647 Y54.119 E0.34324 ; perimeter
G1 X85.228 Y63.003 E0.51088 ; perimeter
G1 X88.361 Y71.706 E0.67853 ; perimeter
G1 X92.035 Y80.196 E0.84617 ; perimeter
G1 X96.235 Y88.438 E1.01381 ; perimeter
G1 X96.813 Y89.416 E1.03440 ; perimeter
G1 X97.249 Y89.296 E1.04260 ; perimeter
G1 X97.249 Y50.249 E1.75024 ; perimeter
G1 X102.751 Y50.249 E1.84995 ; perimeter
G1 X102.751 Y89.296 E2.55759 ; perimeter
G1 X103.187 Y89.416 E2.56579 ; perimeter
G1 X103.765 Y88.438 E2.58638 ; perimeter
G1 X107.965 Y80.196 E2.75402 ; perimeter
G1 X111.639 Y71.706 E2.92167 ; perimeter
G1 X114.772 Y63.003 E3.08931 ; perimeter
G1 X117.353 Y54.119 E3.25695 ; perimeter
G1 X117.794 Y52.145 E3.29361 ; perimeter
G1 X122.706 Y55.380 E3.40019 ; perimeter
G1 X120.005 Y64.703 E3.57610 ; perimeter
G1 X116.754 Y73.731 E3.75000 ; perimeter
G1 X112.943 Y82.538 E3.92391 ; perimeter
G1 X108.587 Y91.088 E4.09781 ; perimeter
G1 X104.943 Y97.249 E4.22753 ; perimeter
G1 X149.751 Y97.249 E5.03957 ; perimeter
G1 X149.751 Y102.751 E5.13928 ; perimeter
G1 X105.259 Y102.751 E5.94559 ; perimeter
G1 X106.143 Y104.051 E5.97407 ; perimeter
G1 X111.813 Y111.360 E6.14171 ; perimeter
G1 X117.930 Y118.299 E6.30936 ; perimeter
G1 X124.471 Y124.840 E6.47700 ; perimeter
G1 X131.410 Y130.957 E6.64464 ; perimeter
G1 X136.935 Y135.243 E6.77137 ; perimeter
G1 X132.083 Y138.439 E6.87667 ; perimeter
G1 X127.903 Y135.197 E6.97253 ; perimeter
G1 X120.705 Y128.850 E7.14645 ; perimeter
G1 X113.919 Y122.065 E7.32035 ; perimeter
G1 X107.573 Y114.867 E7.49426 ; perimeter
G1 X103.135 Y109.145 E7.62549 ; perimeter
G1 X102.751 Y109.277 E7.63286 ; perimeter
G1 X102.751 Y149.751 E8.36636 ; perimeter
G1 X97.249 Y149.751 E8.46607 ; perimeter
G1 X97.249 Y109.277 E9.19957 ; perimeter
G1 X96.865 Y109.145 E9.20693 ; perimeter
G1 X92.427 Y114.867 E9.33817 ; perimeter
G1 X86.081 Y122.065 E9.51208 ; perimeter
G1 X79.295 Y128.850 E9.68598 ; perimeter
G1 X72.097 Y135.197 E9.85989 ; perimeter
G1 X67.917 Y138.439 E9.95576 ; perimeter
G1 X63.065 Y135.243 E10.06105 ; perimeter
G1 X68.590 Y130.957 E10.18778 ; perimeter
G1 X75.529 Y124.840 E10.35543 ; perimeter
G1 X82.070 Y118.299 E10.52307 ; perimeter
G1 X88.187 Y111.360 E10.69071 ; perimeter
G1 X93.857 Y104.051 E10.85836 ; perimeter
G1 X94.741 Y102.751 E10.88684 ; perimeter
G1 X50.249 Y102.751 E11.69315 ; perimeter
G1 X50.249 Y97.249 E11.79286 ; perimeter
G1 X95.057 Y97.249 E12.60490 ; perimeter
G1 X91.413 Y91.088 E12.73461 ; perimeter
G1 X87.057 Y82.538 E12.90852 ; perimeter
G1 X83.246 Y73.731 E13.08242 ; perimeter
G1 X79.995 Y64.703 E13.25633 ; perimeter
G1 X77.310 Y55.453 E13.43088 ; perimeter
G1 X77.792 Y55.400 F12000.000 ; move inwards before travel
G1 X77.606 Y55.475 ; move to first perimeter point
G1 X95.460 Y97.500 ; move to first perimeter point
G1 X95.325 Y102.500 ; move to first perimeter point
G1 X85.893 Y121.898 ; move to first perimeter point
G1 X63.475 Y135.213 ; move to first perimeter point
G1 X63.920 Y135.210 ; move to first perimeter point
M204 S9000 ; adjust acceleration
G1 X68.908 Y131.341 F1500.000 E13.54528 ; perimeter
G1 X75.870 Y125.203 E13.71349 ; perimeter
G1 X82.433 Y118.640 E13.88170 ; perimeter
G1 X88.571 Y111.678 E14.04991 ; perimeter
G1 X94.260 Y104.344 E14.21812 ; perimeter
G1 X95.682 Y102.253 E14.26394 ; perimeter
G1 X50.747 Y102.253 E15.07828 ; perimeter
G1 X50.747 Y97.747 E15.15993 ; perimeter
G1 X95.930 Y97.747 E15.97877 ; perimeter
G1 X91.850 Y90.848 E16.12403 ; perimeter
G1 X87.508 Y82.326 E16.29737 ; perimeter
G1 X83.709 Y73.548 E16.47071 ; perimeter
G1 X80.469 Y64.549 E16.64405 ; perimeter
G1 X77.869 Y55.598 E16.81297 ; perimeter
G1 X81.877 Y52.958 E16.89994 ; perimeter
G1 X82.164 Y54.243 E16.92381 ; perimeter
G1 X84.754 Y63.157 E17.09202 ; perimeter
G1 X87.898 Y71.890 E17.26023 ; perimeter
G1 X91.584 Y80.408 E17.42844 ; perimeter
G1 X95.798 Y88.678 E17.59665 ; perimeter
G1 X96.578 Y89.997 E17.62441 ; perimeter
G1 X97.747 Y89.677 E17.64639 ; perimeter
G1 X97.747 Y50.747 E18.35190 ; perimeter
G1 X102.253 Y50.747 E18.43355 ; perimeter
G1 X102.253 Y89.677 E19.13905 ; perimeter
G1 X103.422 Y89.997 E19.16103 ; perimeter
G1 X104.202 Y88.678 E19.18879 ; perimeter
G1 X108.416 Y80.408 E19.35700 ; perimeter
G1 X112.102 Y71.890 E19.52521 ; perimeter
G1 X115.246 Y63.157 E19.69342 ; perimeter
G1 X117.836 Y54.243 E19.86163 ; perimeter
G1 X118.123 Y52.958 E19.88550 ; perimeter
G1 X122.131 Y55.598 E19.97247 ; perimeter
G1 X119.531 Y64.549 E20.14139 ; perimeter
G1 X116.291 Y73.548 E20.31473 ; perimeter
G1 X112.492 Y82.326 E20.48807 ; perimeter
G1 X108.234 Y90.705 E20.65841 ; perimeter
G1 X104.070 Y97.747 E20.80668 ; perimeter
G1 X149.253 Y97.747 E21.62552 ; perimeter
G1 X149.253 Y102.253 E21.70717 ; perimeter
G1 X104.318 Y102.253 E22.52151 ; perimeter
G1 X105.740 Y104.344 E22.56733 ; perimeter
G1 X111.429 Y111.678 E22.73554 ; perimeter
G1 X117.567 Y118.640 E22.90374 ; perimeter
G1 X124.130 Y125.203 E23.07196 ; perimeter
G1 X131.092 Y131.341 E23.24017 ; perimeter
G1 X136.080 Y135.210 E23.35456 ; perimeter
G1 X132.107 Y137.827 E23.44078 ; perimeter
G1 X128.221 Y134.813 E23.52990 ; perimeter
G1 X121.046 Y128.487 E23.70325 ; perimeter
G1 X114.283 Y121.724 E23.87658 ; perimeter
G1 X107.958 Y114.549 E24.04992 ; perimeter
G1 X103.311 Y108.558 E24.18733 ; perimeter
G1 X102.253 Y108.921 E24.20759 ; perimeter
G1 X102.253 Y149.253 E24.93852 ; perimeter
G1 X97.747 Y149.253 E25.02017 ; perimeter
G1 X97.747 Y108.921 E25.75110 ; perimeter
G1 X96.689 Y108.558 E25.77137 ; perimeter
G1 X92.042 Y114.549 E25.90877 ; perimeter
G1 X85.717 Y121.724 E26.08211 ; perimeter
G1 X78.954 Y128.487 E26.25544 ; perimeter
G1 X71.779 Y134.813 E26.42879 ; perimeter
G1 X67.893 Y137.827 E26.51791 ; perimeter
G1 X63.983 Y135.251 E26.60278 ; perimeter
G1 X64.541 Y135.187 F12000.000 ; move to first fill point
M204 S9000 ; adjust acceleration
G1 X64.939 Y134.877 F1500.000 E26.61196 ; fill
G1 X66.614 Y136.552 E26.65508 ; fill
G1 X68.032 Y137.262 E26.68397 ; fill
G1 X65.338 Y134.568 E26.75335 ; fill
G1 X65.736 Y134.259 E26.76253 ; fill
G1 X68.431 Y136.953 E26.83191 ; fill
G1 X68.829 Y136.644 E26.84110 ; fill
G1 X66.135 Y133.949 E26.91048 ; fill
G1 X66.533 Y133.640 E26.91966 ; fill
G1 X69.228 Y136.335 E26.98905 ; fill
G1 X69.627 Y136.026 E26.99823 ; fill
G1 X66.932 Y133.331 E27.06762 ; fill
G1 X67.330 Y133.022 E27.07680 ; fill
G1 X70.025 Y135.717 E27.14619 ; fill
G1 X70.424 Y135.407 E27.15537 ; fill
G1 X67.729 Y132.713 E27.22476 ; fill
G1 X68.128 Y132.403 E27.23394 ; fill
G1 X70.822 Y135.098 E27.30333 ; fill
G1 X71.221 Y134.789 E27.31251 ; fill
G1 X68.526 Y132.094 E27.38190 ; fill
G1 X68.925 Y131.785 E27.39109 ; fill
G1 X71.616 Y134.476 E27.46037 ; fill
G1 X71.992 Y134.144 E27.46950 ; fill
G1 X69.313 Y131.465 E27.53848 ; fill
G1 X69.689 Y131.134 E27.54761 ; fill
G1 X72.368 Y133.813 E27.61659 ; fill
G1 X72.744 Y133.481 E27.62572 ; fill
G1 X70.065 Y130.802 E27.69469 ; fill
G1 X70.441 Y130.470 E27.70382 ; fill
G1 X73.120 Y133.149 E27.77280 ; fill
G1 X73.496 Y132.818 E27.78193 ; fill
G1 X70.818 Y130.139 E27.85091 ; fill
G1 X71.194 Y129.807 E27.86004 ; fill
G1 X73.873 Y132.486 E27.92901 ; fill
G1 X74.249 Y132.154 E27.93814 ; fill
G1 X71.570 Y129.476 E28.00711 ; fill
G1 X71.946 Y129.144 E28.01624 ; fill
G1 X74.625 Y131.823 E28.08522 ; fill
G1 X75.001 Y131.491 E28.09435 ; fill
G1 X72.322 Y128.812 E28.16332 ; fill
G1 X72.698 Y128.481 E28.17245 ; fill
G1 X75.377 Y131.159 E28.24142 ; fill
G1 X75.753 Y130.828 E28.25055 ; fill
G1 X73.075 Y128.149 E28.31953 ; fill
G1 X73.451 Y127.817 E28.32866 ; fill
G1 X76.129 Y130.496 E28.39763 ; fill
G1 X76.506 Y130.164 E28.40676 ; fill
G1 X73.827 Y127.486 E28.47573 ; fill
G1 X74.203 Y127.154 E28.48486 ; fill
G1 X76.882 Y129.833 E28.55383 ; fill
G1 X77.258 Y129.501 E28.56296 ; fill
G1 X74.579 Y126.822 E28.63193 ; fill
G1 X74.955 Y126.491 E28.64106 ; fill
G1 X77.634 Y129.169 E28.71003 ; fill
G1 X78.010 Y128.838 E28.71916 ; fill
G1 X75.331 Y126.159 E28.78812 ; fill
G1 X75.708 Y125.828 E28.79725 ; fill
G1 X78.386 Y128.506 E28.86622 ; fill
G1 X78.759 Y128.171 E28.87535 ; fill
G1 X76.084 Y125.496 E28.94423 ; fill
G1 X76.440 Y125.144 E28.95334 ; fill
G1 X79.113 Y127.817 E29.02217 ; fill
G1 X79.467 Y127.463 E29.03129 ; fill
G1 X76.794 Y124.790 E29.10012 ; fill
G1 X77.147 Y124.436 E29.10923 ; fill
G1 X79.821 Y127.110 E29.17806 ; fill
G1 X80.175 Y126.756 E29.18717 ; fill
G1 X77.501 Y124.082 E29.25601 ; fill
G1 X77.855 Y123.729 E29.26512 ; fill
G1 X80.529 Y126.402 E29.33395 ; fill
G1 X80.883 Y126.048 E29.34306 ; fill
G1 X78.209 Y123.375 E29.41190 ; fill
G1 X78.563 Y123.021 E29.42101 ; fill
G1 X81.236 Y125.694 E29.48984 ; fill
G1 X81.590 Y125.340 E29.49896 ; fill
