; generated by Slic3r 0.9.9-dev on 2013-10-10 at 19:39:24

; layer_height = 0.4
; perimeters = 3
; top_solid_layers = 3
; bottom_solid_layers = 3
; fill_density = 0.4
; perimeter_speed = 30
; infill_speed = 60
; travel_speed = 130
; nozzle_diameter = 0.5
; filament_diameter = 3
; extrusion_multiplier = 1
; perimeters extrusion width = 0.53mm
; infill extrusion width = 0.53mm
; solid infill extrusion width = 0.53mm
; top infill extrusion width = 0.53mm
; first layer extrusion width = 0.70mm

G21 ; set units to millimeters
M107
M104 S200 ; set temperature
G28 ; home all axes
G1 Z5 F5000 ; lift nozzle

M109 S200 ; wait for temperature to be reached
G90 ; use absolute coordinates
G92 E0
M82 ; use absolute distances for extrusion
G1 F1800.000 E-1.00000
G92 E0
G1 Z0.350 F7800.000
G1 X71.590 Y51.390
G1 F1800.000 E1.00000
G1 X71.970 Y50.910 F540.000 E1.01992
G1 X72.390 Y50.470 E1.03971
G1 X72.850 Y50.060 E1.05976
G1 X73.340 Y49.700 E1.07954
G1 X78.930 Y46.020 E1.29728
G1 X79.430 Y45.750 E1.31577
G1 X80.210 Y45.430 E1.34320
G1 X80.750 Y45.270 E1.36153
G1 X81.580 Y45.120 E1.38897
G1 X96.220 Y43.390 E1.86860
G1 X97.000 Y43.340 E1.89403
G1 X103.000 Y43.340 E2.08924
G1 X103.780 Y43.390 E2.11467
G1 X118.400 Y45.120 E2.59365
G1 X118.710 Y45.160 E2.60382
G1 X119.310 Y45.290 E2.62379
G1 X120.190 Y45.590 E2.65404
G1 X120.750 Y45.850 E2.67413
G1 X121.280 Y46.170 E2.69427
G1 X126.890 Y49.870 E2.91292
G1 X127.140 Y50.060 E2.92314
G1 X127.600 Y50.460 E2.94297
G1 X128.210 Y51.140 E2.97269
G1 X128.570 Y51.640 E2.99274
G1 X155.590 Y93.380 E4.61046
G1 X155.890 Y93.890 E4.62971
G1 X156.020 Y94.150 E4.63917
G1 X156.250 Y94.700 E4.65857
G1 X156.500 Y95.540 E4.68708
G1 X156.600 Y96.120 E4.70623
G1 X156.660 Y97.000 E4.73493
G1 X156.650 Y103.310 E4.94022
G1 X156.630 Y103.620 E4.95033
G1 X156.540 Y104.240 E4.97071
G1 X156.480 Y104.540 E4.98067
G1 X156.300 Y105.140 E5.00105
G1 X156.200 Y105.430 E5.01103
G1 X143.450 Y137.950 E6.14749
G1 X143.190 Y138.470 E6.16640
G1 X142.710 Y139.210 E6.19510
G1 X142.150 Y139.880 E6.22351
G1 X141.500 Y140.460 E6.25185
G1 X141.030 Y140.810 E6.27092
G1 X135.740 Y144.300 E6.47711
G1 X135.250 Y144.590 E6.49564
G1 X134.740 Y144.840 E6.51412
G1 X105.400 Y156.210 E7.53787
G1 X105.120 Y156.310 E7.54754
G1 X104.520 Y156.480 E7.56783
G1 X103.920 Y156.590 E7.58768
G1 X103.310 Y156.650 E7.60762
G1 X97.000 Y156.660 E7.81292
G1 X96.390 Y156.630 E7.83279
G1 X95.780 Y156.540 E7.85285
G1 X95.180 Y156.400 E7.87290
G1 X94.600 Y156.210 E7.89275
G1 X65.250 Y144.840 E8.91681
G1 X64.740 Y144.590 E8.93529
G1 X64.250 Y144.300 E8.95382
G1 X58.960 Y140.810 E9.16001
G1 X58.490 Y140.460 E9.17908
G1 X58.050 Y140.080 E9.19799
G1 X57.840 Y139.880 E9.20743
G1 X57.460 Y139.440 E9.22634
G1 X57.110 Y138.970 E9.24541
G1 X56.800 Y138.470 E9.26455
G1 X56.540 Y137.950 E9.28346
G1 X56.430 Y137.680 E9.29295
G1 X43.690 Y105.140 E10.42989
G1 X43.520 Y104.540 E10.45018
G1 X43.460 Y104.240 E10.46014
G1 X43.370 Y103.620 E10.48052
G1 X43.340 Y103.000 E10.50072
G1 X43.340 Y97.000 E10.69593
G1 X43.400 Y96.120 E10.72463
G1 X43.500 Y95.540 E10.74377
G1 X43.750 Y94.700 E10.77229
G1 X43.860 Y94.420 E10.78208
G1 X44.110 Y93.890 E10.80114
G1 X44.410 Y93.380 E10.82039
G1 X71.535 Y51.472 E12.44457
G1 F1800.000 E11.44457
G92 E0
G1 X78.913 Y55.982 F7800.000
G1 F1800.000 E1.00000
G1 X81.283 Y54.421 F540.000 E1.09234
G1 X83.902 Y63.433 E1.39767
G1 X87.065 Y72.219 E1.70149
G1 X90.773 Y80.789 E2.00530
G1 X95.013 Y89.110 E2.30912
G1 X96.155 Y91.041 E2.38211
G1 X98.643 Y90.360 E2.46603
G1 X98.643 Y51.643 E3.72571
G1 X101.357 Y51.643 E3.81403
G1 X101.357 Y90.360 E5.07370
G1 X103.845 Y91.041 E5.15762
G1 X104.987 Y89.110 E5.23061
G1 X109.227 Y80.789 E5.53443
G1 X112.935 Y72.219 E5.83824
G1 X116.098 Y63.433 E6.14206
G1 X118.717 Y54.421 E6.44739
G1 X121.087 Y55.982 E6.53973
G1 X118.679 Y64.272 E6.82058
G1 X115.458 Y73.218 E7.12994
G1 X111.681 Y81.944 E7.43930
G1 X107.365 Y90.417 E7.74866
G1 X102.500 Y98.643 E8.05960
G1 X148.357 Y98.643 E9.55159
G1 X148.357 Y101.357 E9.63991
G1 X102.626 Y101.357 E11.12777
G1 X105.015 Y104.870 E11.26598
G1 X110.738 Y112.249 E11.56979
G1 X116.914 Y119.253 E11.87360
G1 X123.517 Y125.856 E12.17741
G1 X130.521 Y132.031 E12.48123
G1 X134.542 Y135.151 E12.64680
G1 X132.149 Y136.727 E12.74003
G1 X128.792 Y134.123 E12.87826
G1 X121.659 Y127.834 E13.18764
G1 X114.936 Y121.111 E13.49699
G1 X108.648 Y113.978 E13.80635
G1 X103.626 Y107.504 E14.07293
G1 X101.357 Y108.281 E14.15095
G1 X101.357 Y148.357 E15.45485
G1 X98.643 Y148.357 E15.54317
G1 X98.643 Y108.281 E16.84707
G1 X96.374 Y107.504 E16.92509
G1 X91.352 Y113.978 E17.19167
G1 X85.064 Y121.111 E17.50103
G1 X78.341 Y127.834 E17.81038
G1 X71.208 Y134.123 E18.11975
G1 X67.851 Y136.727 E18.25799
G1 X65.458 Y135.151 E18.35121
G1 X69.479 Y132.031 E18.51679
G1 X76.483 Y125.856 E18.82060
G1 X83.086 Y119.253 E19.12442
G1 X89.262 Y112.249 E19.42823
G1 X94.985 Y104.870 E19.73204
G1 X97.374 Y101.357 E19.87025
G1 X51.643 Y101.357 E21.35811
G1 X51.643 Y98.643 E21.44643
G1 X97.500 Y98.643 E22.93842
G1 X92.635 Y90.417 E23.24936
G1 X88.319 Y81.944 E23.55872
G1 X84.542 Y73.218 E23.86808
G1 X81.321 Y64.272 E24.17744
G1 X78.941 Y56.077 E24.45508
G1 X78.147 Y55.700 F7800.000
G1 X81.720 Y53.347 F540.000 E24.59426
G1 X81.933 Y54.303 E24.62612
G1 X84.527 Y63.230 E24.92859
G1 X87.676 Y71.977 E25.23106
G1 X91.368 Y80.509 E25.53353
G1 X95.589 Y88.793 E25.83600
G1 X96.465 Y90.274 E25.89200
G1 X97.986 Y89.859 E25.94329
G1 X97.986 Y50.986 E27.20803
G1 X102.014 Y50.986 E27.33911
G1 X102.014 Y89.859 E28.60385
G1 X103.535 Y90.274 E28.65514
G1 X104.411 Y88.793 E28.71114
G1 X108.632 Y80.509 E29.01361
G1 X112.324 Y71.977 E29.31608
G1 X115.473 Y63.230 E29.61855
G1 X118.067 Y54.303 E29.92102
G1 X118.280 Y53.347 E29.95288
G1 X121.853 Y55.700 E30.09206
G1 X119.304 Y64.475 E30.38936
G1 X116.069 Y73.460 E30.70006
G1 X112.276 Y82.224 E31.01076
G1 X107.941 Y90.733 E31.32146
G1 X103.652 Y97.986 E31.59560
G1 X149.014 Y97.986 E33.07148
G1 X149.014 Y102.014 E33.20256
G1 X103.868 Y102.014 E34.67141
G1 X105.547 Y104.484 E34.76856
G1 X111.245 Y111.830 E35.07103
G1 X117.393 Y118.803 E35.37350
G1 X123.967 Y125.377 E35.67597
G1 X130.940 Y131.525 E35.97844
G1 X135.670 Y135.194 E36.17322
G1 X132.118 Y137.534 E36.31162
G1 X128.373 Y134.629 E36.46582
G1 X121.209 Y128.313 E36.77654
G1 X114.457 Y121.561 E37.08723
G1 X108.141 Y114.397 E37.39794
G1 X103.395 Y108.278 E37.64991
G1 X102.014 Y108.750 E37.69738
G1 X102.014 Y149.014 E39.00738
G1 X97.986 Y149.014 E39.13846
G1 X97.986 Y108.750 E40.44845
G1 X96.605 Y108.278 E40.49592
G1 X91.859 Y114.397 E40.74790
G1 X85.543 Y121.561 E41.05860
G1 X78.791 Y128.313 E41.36930
G1 X71.627 Y134.629 E41.68001
G1 X67.882 Y137.534 E41.83422
G1 X64.330 Y135.194 E41.97261
G1 X69.060 Y131.525 E42.16740
G1 X76.033 Y125.377 E42.46987
G1 X82.607 Y118.803 E42.77234
G1 X88.755 Y111.830 E43.07480
G1 X94.453 Y104.484 E43.37727
G1 X96.132 Y102.014 E43.47443
G1 X50.986 Y102.014 E44.94328
G1 X50.986 Y97.986 E45.07436
G1 X96.348 Y97.986 E46.55024
G1 X92.059 Y90.733 E46.82437
G1 X87.724 Y82.224 E47.13508
G1 X83.931 Y73.460 E47.44578
G1 X80.696 Y64.475 E47.75648
G1 X78.174 Y55.795 E48.05057
G1 X77.381 Y55.418 F7800.000
G1 X82.153 Y52.275 F378.000 E48.23649
G1 X82.570 Y54.139 E48.29864
G1 X85.152 Y63.027 E48.59977
G1 X88.287 Y71.735 E48.90090
G1 X91.963 Y80.230 E49.20203
G1 X96.165 Y88.476 E49.50315
G1 X96.775 Y89.508 E49.54217
G1 X97.329 Y89.357 E49.56083
G1 X97.329 Y50.329 E50.83063
G1 X102.671 Y50.329 E51.00446
G1 X102.671 Y89.357 E52.27426
G1 X103.225 Y89.508 E52.29292
G1 X103.835 Y88.476 E52.33194
G1 X108.037 Y80.230 E52.63307
G1 X111.713 Y71.735 E52.93419
G1 X114.848 Y63.027 E53.23532
G1 X117.430 Y54.139 E53.53645
G1 X117.847 Y52.275 E53.59860
G1 X122.619 Y55.418 E53.78452
G1 X119.929 Y64.678 E54.09826
G1 X116.680 Y73.702 E54.41031
G1 X112.871 Y82.504 E54.72235
G1 X108.519 Y91.047 E55.03427
G1 X104.804 Y97.329 E55.27173
G1 X149.671 Y97.329 E56.73151
G1 X149.671 Y102.671 E56.90534
G1 X105.109 Y102.671 E58.35518
G1 X106.079 Y104.097 E58.41128
G1 X111.751 Y111.411 E58.71241
G1 X117.872 Y118.353 E59.01353
G1 X124.417 Y124.898 E59.31466
G1 X131.359 Y131.018 E59.61578
G1 X136.799 Y135.238 E59.83977
G1 X132.087 Y138.341 E60.02334
G1 X127.954 Y135.136 E60.19351
G1 X120.759 Y128.792 E60.50558
G1 X113.977 Y122.011 E60.81761
G1 X107.635 Y114.816 E61.12966
G1 X103.163 Y109.052 E61.36703
G1 X102.671 Y109.220 E61.38395
G1 X102.671 Y149.671 E62.70004
G1 X97.329 Y149.671 E62.87388
G1 X97.329 Y109.220 E64.18998
G1 X96.837 Y109.052 E64.20689
G1 X92.365 Y114.816 E64.44426
G1 X86.023 Y122.011 E64.75631
G1 X79.241 Y128.792 E65.06835
G1 X72.046 Y135.136 E65.38041
G1 X67.913 Y138.341 E65.55058
G1 X63.201 Y135.238 E65.73415
G1 X68.641 Y131.018 E65.95814
G1 X75.583 Y124.898 E66.25926
G1 X82.128 Y118.353 E66.56039
G1 X88.249 Y111.411 E66.86151
G1 X93.921 Y104.097 E67.16264
G1 X94.891 Y102.671 E67.21874
G1 X50.329 Y102.671 E68.66858
G1 X50.329 Y97.329 E68.84242
G1 X95.196 Y97.329 E70.30220
G1 X91.483 Y91.050 E70.53952
G1 X87.129 Y82.504 E70.85157
G1 X83.320 Y73.702 E71.16361
G1 X80.071 Y64.678 E71.47566
G1 X77.408 Y55.513 E71.78619
G1 X78.037 Y55.445 F7800.000
G1 X81.254 Y56.027
G1 X80.641 Y55.414 F1080.000 E71.81446
G1 X80.080 Y55.784 E71.83639
G1 X81.635 Y57.340 E71.90814
G1 X82.017 Y58.653 E71.95272
G1 X79.518 Y56.154 E72.06796
G1 X79.816 Y57.384 E72.10922
G1 X82.398 Y59.966 E72.22830
G1 X82.780 Y61.279 E72.27288
G1 X80.198 Y58.697 E72.39195
G1 X80.579 Y60.009 E72.43653
G1 X83.161 Y62.591 E72.55560
G1 X83.578 Y63.939 E72.60161
G1 X80.960 Y61.322 E72.72230
G1 X81.342 Y62.635 E72.76688
G1 X84.102 Y65.395 E72.89415
G1 X84.625 Y66.850 E72.94459
G1 X81.723 Y63.948 E73.07843
G1 X82.228 Y65.384 E73.12807
G1 X85.149 Y68.305 E73.26280
G1 X85.673 Y69.761 E73.31324
G1 X82.752 Y66.839 E73.44797
G1 X83.276 Y68.295 E73.49841
G1 X86.197 Y71.216 E73.63314
G1 X86.757 Y72.707 E73.68506
G1 X83.800 Y69.750 E73.82143
G1 X84.324 Y71.205 E73.87187
G1 X87.467 Y74.349 E74.01684
G1 X88.178 Y75.991 E74.07518
G1 X84.848 Y72.660 E74.22875
G1 X85.509 Y74.253 E74.28500
G1 X88.888 Y77.632 E74.44083
G1 X89.599 Y79.274 E74.49917
G1 X86.220 Y75.895 E74.65500
G1 X86.930 Y77.537 E74.71334
G1 X90.309 Y80.916 E74.86916
G1 X89.175 Y82.576 F7800.000
G1 X93.200 Y86.601 F1080.000 E75.05479
G1 X92.077 Y88.273 F7800.000
G1 X102.133 Y98.328 F1080.000 E75.51851
G1 X102.479 Y97.743 E75.54068
G1 X96.246 Y91.509 E75.82814
G1 X96.977 Y91.309 E75.85286
G1 X102.825 Y97.157 E76.12255
G1 X103.171 Y96.572 E76.14473
G1 X97.708 Y91.109 E76.39665
G1 X98.440 Y90.909 E76.42138
G1 X103.517 Y95.987 E76.65554
G1 X103.863 Y95.402 E76.67771
G1 X99.119 Y90.657 E76.89651
G1 X99.119 Y89.726 E76.92688
G1 X104.209 Y94.816 E77.16164
G1 X104.556 Y94.231 E77.18381
G1 X101.111 Y90.786 E77.34267
G1 X102.393 Y91.137 E77.38602
G1 X104.902 Y93.646 E77.50171
G1 X105.248 Y93.060 E77.52388
G1 X103.675 Y91.488 E77.59641
G1 X104.310 Y91.191 E77.61926
G1 X105.594 Y92.475 E77.67848
G1 X105.940 Y91.890 E77.70066
G1 X104.656 Y90.606 E77.75988
G1 X105.002 Y90.020 E77.78205
G1 X106.286 Y91.305 E77.84128
G1 X106.632 Y90.719 E77.86345
G1 X105.348 Y89.435 E77.92267
G1 X105.668 Y88.823 E77.94518
G1 X106.975 Y90.131 E78.00550
G1 X107.290 Y89.514 E78.02808
G1 X105.982 Y88.206 E78.08840
G1 X106.296 Y87.589 E78.11098
G1 X107.604 Y88.897 E78.17130
G1 X107.919 Y88.280 E78.19388
G1 X106.611 Y86.972 E78.25419
G1 X106.925 Y86.355 E78.27677
G1 X108.233 Y87.663 E78.33709
G1 X108.547 Y87.046 E78.35967
G1 X107.240 Y85.738 E78.41999
G1 X107.554 Y85.121 E78.44257
G1 X108.862 Y86.429 E78.50288
G1 X109.176 Y85.812 E78.52547
G1 X107.868 Y84.504 E78.58578
G1 X108.183 Y83.887 E78.60836
G1 X109.491 Y85.195 E78.66868
G1 X109.805 Y84.578 E78.69126
G1 X108.497 Y83.270 E78.75157
G1 X108.811 Y82.653 E78.77416
G1 X110.119 Y83.961 E78.83447
G1 X110.434 Y83.344 E78.85705
G1 X109.126 Y82.036 E78.91737
G1 X109.440 Y81.419 E78.93995
G1 X110.748 Y82.727 E79.00026
G1 X111.062 Y82.110 E79.02285
G1 X109.744 Y80.792 E79.08363
G1 X110.026 Y80.142 E79.10673
G1 X111.363 Y81.480 E79.16842
G1 X110.307 Y79.492 F7800.000
G1 X111.645 Y80.830 F1080.000 E79.23012
G1 X111.926 Y80.180 E79.25322
G1 X110.588 Y78.842 E79.31491
G1 X110.870 Y78.192 E79.33801
G1 X112.207 Y79.530 E79.39971
G1 X112.489 Y78.880 E79.42281
G1 X111.151 Y77.542 E79.48450
G1 X111.432 Y76.892 E79.50760
G1 X112.770 Y78.230 E79.56930
G1 X113.051 Y77.580 E79.59240
G1 X111.714 Y76.242 E79.65409
G1 X111.995 Y75.592 E79.67719
G1 X113.333 Y76.929 E79.73889
G1 X113.614 Y76.279 E79.76199
G1 X112.276 Y74.942 E79.82369
G1 X112.557 Y74.291 E79.84678
G1 X113.895 Y75.629 E79.90848
G1 X114.177 Y74.979 E79.93158
G1 X112.839 Y73.641 E79.99328
G1 X113.120 Y72.991 E80.01638
G1 X114.458 Y74.329 E80.07808
G1 X114.739 Y73.679 E80.10118
G1 X113.399 Y72.338 E80.16301
G1 X113.645 Y71.654 E80.18674
G1 X115.020 Y73.028 E80.25014
G1 X115.266 Y72.343 E80.27388
G1 X113.892 Y70.969 E80.33728
G1 X114.138 Y70.284 E80.36101
G1 X115.513 Y71.659 E80.42441
G1 X115.759 Y70.974 E80.44815
G1 X114.385 Y69.599 E80.51155
G1 X114.631 Y68.914 E80.53528
G1 X116.006 Y70.289 E80.59868
G1 X116.253 Y69.604 E80.62242
G1 X114.878 Y68.229 E80.68582
G1 X115.124 Y67.545 E80.70955
G1 X116.499 Y68.919 E80.77295
G1 X116.746 Y68.234 E80.79669
G1 X115.371 Y66.860 E80.86009
G1 X115.618 Y66.175 E80.88382
G1 X116.992 Y67.550 E80.94722
G1 X117.239 Y66.865 E80.97095
G1 X115.864 Y65.490 E81.03435
G1 X116.111 Y64.805 E81.05809
G1 X117.485 Y66.180 E81.12149
G1 X117.732 Y65.495 E81.14522
G1 X116.357 Y64.120 E81.20862
G1 X116.596 Y63.428 E81.23251
G1 X117.978 Y64.810 E81.29627
G1 X118.225 Y64.125 E81.32000
G1 X116.806 Y62.706 E81.38546
G1 X117.015 Y61.984 E81.40997
G1 X118.435 Y63.404 E81.47543
G1 X118.644 Y62.682 E81.49994
G1 X117.225 Y61.263 E81.56540
G1 X117.435 Y60.541 E81.58991
G1 X118.854 Y61.960 E81.65537
G1 X119.064 Y61.239 E81.67987
G1 X117.644 Y59.819 E81.74534
G1 X117.854 Y59.098 E81.76984
G1 X119.273 Y60.517 E81.83531
G1 X119.483 Y59.795 E81.85981
G1 X118.064 Y58.376 E81.92527
G1 X118.273 Y57.654 E81.94978
G1 X119.693 Y59.074 E82.01524
G1 X119.902 Y58.352 E82.03975
G1 X118.483 Y56.932 E82.10521
G1 X118.693 Y56.211 E82.12972
G1 X120.112 Y57.630 E82.19518
G1 X120.322 Y56.908 E82.21969
G1 X118.902 Y55.489 E82.28515
G1 X120.532 Y56.187 E82.34295
G1 F1800.000 E81.34295
G92 E0
G1 X100.881 Y56.095 F7800.000
G1 F1800.000 E1.00000
G1 X99.119 Y54.333 F1080.000 E1.08126
G1 X99.119 Y53.402 E1.11163
G1 X100.881 Y55.164 E1.19290
G1 X100.881 Y54.233 E1.22327
G1 X99.119 Y52.470 E1.30453
G1 X99.699 Y52.119 E1.32664
G1 X100.881 Y53.301 E1.38117
G1 X100.881 Y52.370 E1.41154
G1 X100.630 Y52.119 E1.42311
G1 X99.119 Y55.265 F7800.000
G1 X100.881 Y57.027 F1080.000 E1.50437
G1 X99.119 Y56.196 F7800.000
G1 X100.881 Y57.958 F1080.000 E1.58563
G1 X100.881 Y58.889 E1.61600
G1 X99.119 Y57.127 E1.69727
G1 X99.119 Y58.059 E1.72764
G1 X100.881 Y59.821 E1.80890
G1 X100.881 Y60.752 E1.83927
G1 X99.119 Y58.990 E1.92054
G1 X99.119 Y59.922 E1.95091
G1 X100.881 Y61.684 E2.03217
G1 X100.881 Y62.615 E2.06254
G1 X99.119 Y60.853 E2.14380
G1 X99.119 Y61.784 E2.17418
G1 X100.881 Y63.546 E2.25544
G1 X100.881 Y64.478 E2.28581
G1 X99.119 Y62.716 E2.36707
G1 X99.119 Y63.647 E2.39745
G1 X100.881 Y65.409 E2.47871
G1 X100.881 Y66.341 E2.50908
G1 X99.119 Y64.578 E2.59034
G1 X99.119 Y65.510 E2.62072
G1 X100.881 Y67.272 E2.70198
G1 X100.881 Y68.203 E2.73235
G1 X99.119 Y66.441 E2.81361
G1 X99.119 Y67.373 E2.84399
G1 X100.881 Y69.135 E2.92525
G1 X100.881 Y70.066 E2.95562
G1 X99.119 Y68.304 E3.03688
G1 X99.119 Y69.235 E3.06726
G1 X100.881 Y70.997 E3.14852
G1 X100.881 Y71.929 E3.17889
G1 X99.119 Y70.167 E3.26015
G1 X99.119 Y71.098 E3.29052
G1 X100.881 Y72.860 E3.37179
G1 X100.881 Y73.792 E3.40216
G1 X99.119 Y72.030 E3.48342
G1 X99.119 Y72.961 E3.51379
G1 X100.881 Y74.723 E3.59506
G1 X100.881 Y75.654 E3.62543
G1 X99.119 Y73.892 E3.70669
G1 X99.119 Y74.824 E3.73706
G1 X100.881 Y76.586 E3.81833
G1 X100.881 Y77.517 E3.84870
G1 X99.119 Y75.755 E3.92996
G1 X99.119 Y76.686 E3.96033
G1 X100.881 Y78.449 E4.04160
G1 X100.881 Y79.380 E4.07197
G1 X99.119 Y77.618 E4.15323
G1 X99.119 Y78.549 E4.18360
G1 X100.881 Y80.311 E4.26487
