; generated by Slic3r 0.9.9-dev on 2013-10-03 at 18:17:19

; layer_height = 0.35
; perimeters = 2
; top_solid_layers = 3
; bottom_solid_layers = 3
; fill_density = 0.15
; perimeter_speed = 50
; infill_speed = 50
; travel_speed = 200
; nozzle_diameter = 0.5
; filament_diameter = 3
; extrusion_multiplier = 1
; perimeters extrusion width = 0.58mm
; infill extrusion width = 0.58mm
; solid infill extrusion width = 0.58mm
; top infill extrusion width = 0.58mm
; first layer extrusion width = 0.53mm

G21 ; set units to millimeters
M107 ; disable fan
M104 S220 ; set temperature
G28 ; home all axes
G1 Z5 F5000 ; lift nozzle
M109 S220 ; wait for temperature to be reached
G90 ; use absolute coordinates
G92 E0 ; reset extrusion distance
M82 ; use absolute distances for extrusion
G1 F1800.000 E-0.20000 ; retract
G92 E0 ; reset extrusion distance
G1 Z0.550 F12000.000 ; move to next layer (0)
G1 X89.180 Y89.390 ; move to first skirt point
G1 F1800.000 E0.20000 ; compensate retraction
G1 X89.830 Y88.790 F1113.228 E0.22276 ; skirt
G1 X90.540 Y88.260 E0.24556 ; skirt
G1 X90.790 Y88.100 E0.25319 ; skirt
G1 X91.840 Y87.560 E0.28357 ; skirt
G1 X92.390 Y87.350 E0.29872 ; skirt
G1 X93.240 Y87.110 E0.32145 ; skirt
G1 X94.120 Y86.970 E0.34437 ; skirt
G1 X94.410 Y86.940 E0.35187 ; skirt
G1 X95.000 Y86.920 E0.36706 ; skirt
G1 X105.000 Y86.920 E0.62436 ; skirt
G1 X105.590 Y86.940 E0.63955 ; skirt
G1 X106.180 Y87.010 E0.65484 ; skirt
G1 X106.760 Y87.110 E0.66998 ; skirt
G1 X107.330 Y87.260 E0.68515 ; skirt
G1 X107.890 Y87.450 E0.70036 ; skirt
G1 X108.430 Y87.690 E0.71556 ; skirt
G1 X109.210 Y88.100 E0.73824 ; skirt
G1 X109.460 Y88.260 E0.74587 ; skirt
G1 X110.170 Y88.790 E0.76867 ; skirt
G1 X110.610 Y89.180 E0.78380 ; skirt
G1 X111.210 Y89.830 E0.80656 ; skirt
G1 X111.740 Y90.540 E0.82936 ; skirt
G1 X111.900 Y90.790 E0.83699 ; skirt
G1 X112.440 Y91.840 E0.86737 ; skirt
G1 X112.650 Y92.390 E0.88252 ; skirt
G1 X112.890 Y93.240 E0.90525 ; skirt
G1 X113.030 Y94.120 E0.92817 ; skirt
G1 X113.060 Y94.410 E0.93567 ; skirt
G1 X113.080 Y95.000 E0.95086 ; skirt
G1 X113.080 Y105.000 E1.20816 ; skirt
G1 X113.060 Y105.590 E1.22335 ; skirt
G1 X112.990 Y106.180 E1.23864 ; skirt
G1 X112.890 Y106.760 E1.25378 ; skirt
G1 X112.740 Y107.330 E1.26894 ; skirt
G1 X112.550 Y107.890 E1.28416 ; skirt
G1 X112.310 Y108.430 E1.29936 ; skirt
G1 X111.900 Y109.210 E1.32204 ; skirt
G1 X111.740 Y109.460 E1.32967 ; skirt
G1 X111.210 Y110.170 E1.35247 ; skirt
G1 X110.820 Y110.610 E1.36760 ; skirt
G1 X110.170 Y111.210 E1.39036 ; skirt
G1 X109.460 Y111.740 E1.41316 ; skirt
G1 X109.210 Y111.900 E1.42079 ; skirt
G1 X108.160 Y112.440 E1.45117 ; skirt
G1 X107.610 Y112.650 E1.46632 ; skirt
G1 X106.760 Y112.890 E1.48904 ; skirt
G1 X105.880 Y113.030 E1.51197 ; skirt
G1 X105.590 Y113.060 E1.51947 ; skirt
G1 X105.000 Y113.080 E1.53466 ; skirt
G1 X95.000 Y113.080 E1.79196 ; skirt
G1 X94.410 Y113.060 E1.80715 ; skirt
G1 X93.820 Y112.990 E1.82244 ; skirt
G1 X93.240 Y112.890 E1.83758 ; skirt
G1 X92.670 Y112.740 E1.85274 ; skirt
G1 X92.110 Y112.550 E1.86796 ; skirt
G1 X91.570 Y112.310 E1.88316 ; skirt
G1 X90.790 Y111.900 E1.90584 ; skirt
G1 X90.540 Y111.740 E1.91347 ; skirt
G1 X89.830 Y111.210 E1.93627 ; skirt
G1 X89.390 Y110.820 E1.95140 ; skirt
G1 X88.790 Y110.170 E1.97416 ; skirt
G1 X88.260 Y109.460 E1.99695 ; skirt
G1 X88.100 Y109.210 E2.00459 ; skirt
G1 X87.560 Y108.160 E2.03497 ; skirt
G1 X87.350 Y107.610 E2.05012 ; skirt
G1 X87.110 Y106.760 E2.07284 ; skirt
G1 X86.970 Y105.880 E2.09577 ; skirt
G1 X86.940 Y105.590 E2.10327 ; skirt
G1 X86.920 Y105.000 E2.11846 ; skirt
G1 X86.920 Y95.000 E2.37576 ; skirt
G1 X86.940 Y94.410 E2.39095 ; skirt
G1 X87.010 Y93.820 E2.40623 ; skirt
G1 X87.110 Y93.240 E2.42138 ; skirt
G1 X87.260 Y92.670 E2.43654 ; skirt
G1 X87.450 Y92.110 E2.45176 ; skirt
G1 X87.690 Y91.570 E2.46696 ; skirt
G1 X88.100 Y90.790 E2.48964 ; skirt
G1 X88.260 Y90.540 E2.49727 ; skirt
G1 X88.790 Y89.830 E2.52007 ; skirt
G1 X89.128 Y89.448 E2.53319 ; skirt
G1 X89.460 Y89.860 F12000.000 ; move to first skirt point
G1 X90.070 Y89.270 F1113.228 E2.55503 ; skirt
G1 X90.740 Y88.750 E2.57685 ; skirt
G1 X91.220 Y88.450 E2.59141 ; skirt
G1 X91.980 Y88.070 E2.61328 ; skirt
G1 X92.240 Y87.960 E2.62054 ; skirt
G1 X92.770 Y87.780 E2.63494 ; skirt
G1 X93.590 Y87.570 E2.65672 ; skirt
G1 X94.440 Y87.460 E2.67877 ; skirt
G1 X95.000 Y87.440 E2.69319 ; skirt
G1 X105.000 Y87.440 E2.95049 ; skirt
G1 X105.560 Y87.460 E2.96491 ; skirt
G1 X105.850 Y87.490 E2.97241 ; skirt
G1 X106.410 Y87.570 E2.98696 ; skirt
G1 X106.960 Y87.700 E3.00150 ; skirt
G1 X107.760 Y87.960 E3.02315 ; skirt
G1 X108.020 Y88.070 E3.03041 ; skirt
G1 X108.780 Y88.450 E3.05227 ; skirt
G1 X109.260 Y88.750 E3.06684 ; skirt
G1 X109.710 Y89.090 E3.08135 ; skirt
G1 X110.140 Y89.460 E3.09594 ; skirt
G1 X110.730 Y90.070 E3.11778 ; skirt
G1 X111.250 Y90.740 E3.13960 ; skirt
G1 X111.550 Y91.220 E3.15417 ; skirt
G1 X111.930 Y91.980 E3.17603 ; skirt
G1 X112.040 Y92.240 E3.18329 ; skirt
G1 X112.220 Y92.770 E3.19769 ; skirt
G1 X112.430 Y93.590 E3.21947 ; skirt
G1 X112.540 Y94.440 E3.24153 ; skirt
G1 X112.560 Y95.000 E3.25594 ; skirt
G1 X112.560 Y105.000 E3.51324 ; skirt
G1 X112.540 Y105.560 E3.52766 ; skirt
G1 X112.510 Y105.850 E3.53516 ; skirt
G1 X112.430 Y106.410 E3.54971 ; skirt
G1 X112.300 Y106.960 E3.56425 ; skirt
G1 X112.040 Y107.760 E3.58590 ; skirt
G1 X111.930 Y108.020 E3.59316 ; skirt
G1 X111.550 Y108.780 E3.61502 ; skirt
G1 X111.250 Y109.260 E3.62959 ; skirt
G1 X110.910 Y109.710 E3.64410 ; skirt
G1 X110.540 Y110.140 E3.65870 ; skirt
G1 X109.930 Y110.730 E3.68053 ; skirt
G1 X109.260 Y111.250 E3.70235 ; skirt
G1 X108.780 Y111.550 E3.71692 ; skirt
G1 X108.020 Y111.930 E3.73878 ; skirt
G1 X107.760 Y112.040 E3.74604 ; skirt
G1 X107.230 Y112.220 E3.76045 ; skirt
G1 X106.410 Y112.430 E3.78222 ; skirt
G1 X105.560 Y112.540 E3.80428 ; skirt
G1 X105.000 Y112.560 E3.81869 ; skirt
G1 X95.000 Y112.560 E4.07599 ; skirt
G1 X94.440 Y112.540 E4.09041 ; skirt
G1 X94.150 Y112.510 E4.09791 ; skirt
G1 X93.590 Y112.430 E4.11247 ; skirt
G1 X93.040 Y112.300 E4.12701 ; skirt
G1 X92.240 Y112.040 E4.14865 ; skirt
G1 X91.980 Y111.930 E4.15591 ; skirt
G1 X91.220 Y111.550 E4.17778 ; skirt
G1 X90.740 Y111.250 E4.19234 ; skirt
G1 X90.290 Y110.910 E4.20685 ; skirt
G1 X89.860 Y110.540 E4.22145 ; skirt
G1 X89.270 Y109.930 E4.24328 ; skirt
G1 X88.750 Y109.260 E4.26511 ; skirt
G1 X88.450 Y108.780 E4.27967 ; skirt
G1 X88.070 Y108.020 E4.30153 ; skirt
G1 X87.960 Y107.760 E4.30880 ; skirt
G1 X87.780 Y107.230 E4.32320 ; skirt
G1 X87.570 Y106.410 E4.34498 ; skirt
G1 X87.460 Y105.560 E4.36703 ; skirt
G1 X87.440 Y105.000 E4.38145 ; skirt
G1 X87.440 Y95.000 E4.63874 ; skirt
G1 X87.460 Y94.440 E4.65316 ; skirt
G1 X87.490 Y94.150 E4.66066 ; skirt
G1 X87.570 Y93.590 E4.67522 ; skirt
G1 X87.700 Y93.040 E4.68976 ; skirt
G1 X87.960 Y92.240 E4.71140 ; skirt
G1 X88.070 Y91.980 E4.71867 ; skirt
G1 X88.450 Y91.220 E4.74053 ; skirt
G1 X88.750 Y90.740 E4.75509 ; skirt
G1 X89.090 Y90.290 E4.76960 ; skirt
G1 X89.408 Y89.918 E4.78220 ; skirt
G1 X89.830 Y90.220 F12000.000 ; move to first skirt point
G1 X90.220 Y89.830 F1113.228 E4.79639 ; skirt
G1 X90.640 Y89.470 E4.81062 ; skirt
G1 X90.860 Y89.310 E4.81762 ; skirt
G1 X91.320 Y89.000 E4.83189 ; skirt
G1 X92.050 Y88.610 E4.85319 ; skirt
G1 X92.820 Y88.310 E4.87445 ; skirt
G1 X93.630 Y88.100 E4.89598 ; skirt
G1 X94.450 Y87.980 E4.91730 ; skirt
G1 X95.000 Y87.960 E4.93146 ; skirt
G1 X105.000 Y87.960 E5.18876 ; skirt
G1 X105.550 Y87.980 E5.20292 ; skirt
G1 X105.830 Y88.010 E5.21017 ; skirt
G1 X106.370 Y88.100 E5.22425 ; skirt
G1 X107.180 Y88.310 E5.24578 ; skirt
G1 X107.690 Y88.500 E5.25978 ; skirt
G1 X108.200 Y88.730 E5.27418 ; skirt
G1 X108.680 Y89.000 E5.28835 ; skirt
G1 X109.140 Y89.310 E5.30262 ; skirt
G1 X109.360 Y89.470 E5.30962 ; skirt
G1 X109.980 Y90.020 E5.33095 ; skirt
G1 X110.530 Y90.640 E5.35227 ; skirt
G1 X110.850 Y91.090 E5.36648 ; skirt
G1 X111.270 Y91.800 E5.38770 ; skirt
G1 X111.500 Y92.310 E5.40210 ; skirt
G1 X111.690 Y92.820 E5.41610 ; skirt
G1 X111.900 Y93.630 E5.43763 ; skirt
G1 X112.020 Y94.450 E5.45895 ; skirt
G1 X112.040 Y95.000 E5.47311 ; skirt
G1 X112.040 Y105.000 E5.73041 ; skirt
G1 X112.020 Y105.550 E5.74457 ; skirt
G1 X111.990 Y105.830 E5.75182 ; skirt
G1 X111.900 Y106.370 E5.76590 ; skirt
G1 X111.690 Y107.180 E5.78743 ; skirt
G1 X111.500 Y107.690 E5.80144 ; skirt
G1 X111.270 Y108.200 E5.81583 ; skirt
G1 X111.000 Y108.680 E5.83000 ; skirt
G1 X110.690 Y109.140 E5.84427 ; skirt
G1 X110.530 Y109.360 E5.85127 ; skirt
G1 X109.980 Y109.980 E5.87260 ; skirt
G1 X109.360 Y110.530 E5.89392 ; skirt
G1 X108.910 Y110.850 E5.90813 ; skirt
G1 X108.200 Y111.270 E5.92935 ; skirt
G1 X107.690 Y111.500 E5.94375 ; skirt
G1 X107.180 Y111.690 E5.95775 ; skirt
G1 X106.370 Y111.900 E5.97928 ; skirt
G1 X105.550 Y112.020 E6.00060 ; skirt
G1 X105.000 Y112.040 E6.01477 ; skirt
G1 X95.000 Y112.040 E6.27206 ; skirt
G1 X94.450 Y112.020 E6.28622 ; skirt
G1 X94.170 Y111.990 E6.29347 ; skirt
G1 X93.630 Y111.900 E6.30755 ; skirt
G1 X92.820 Y111.690 E6.32908 ; skirt
G1 X92.310 Y111.500 E6.34309 ; skirt
G1 X91.800 Y111.270 E6.35748 ; skirt
G1 X91.320 Y111.000 E6.37165 ; skirt
G1 X90.860 Y110.690 E6.38592 ; skirt
G1 X90.640 Y110.530 E6.39292 ; skirt
G1 X90.020 Y109.980 E6.41425 ; skirt
G1 X89.470 Y109.360 E6.43557 ; skirt
G1 X89.150 Y108.910 E6.44978 ; skirt
G1 X88.730 Y108.200 E6.47100 ; skirt
G1 X88.500 Y107.690 E6.48540 ; skirt
G1 X88.310 Y107.180 E6.49940 ; skirt
G1 X88.100 Y106.370 E6.52093 ; skirt
G1 X87.980 Y105.550 E6.54226 ; skirt
G1 X87.960 Y105.000 E6.55642 ; skirt
G1 X87.960 Y95.000 E6.81371 ; skirt
G1 X87.980 Y94.450 E6.82787 ; skirt
G1 X88.010 Y94.170 E6.83512 ; skirt
G1 X88.100 Y93.630 E6.84921 ; skirt
G1 X88.230 Y93.090 E6.86350 ; skirt
G1 X88.400 Y92.560 E6.87782 ; skirt
G1 X88.610 Y92.050 E6.89201 ; skirt
G1 X88.860 Y91.560 E6.90616 ; skirt
G1 X89.150 Y91.090 E6.92037 ; skirt
G1 X89.470 Y90.640 E6.93458 ; skirt
G1 X89.779 Y90.279 E6.94681 ; skirt
G1 X90.120 Y90.680 F12000.000 ; move to first skirt point
G1 X90.300 Y90.480 F1113.228 E6.95373 ; skirt
G1 X90.680 Y90.120 E6.96720 ; skirt
G1 X91.300 Y89.630 E6.98753 ; skirt
G1 X91.740 Y89.350 E7.00095 ; skirt
G1 X92.440 Y89.000 E7.02109 ; skirt
G1 X92.690 Y88.900 E7.02801 ; skirt
G1 X93.190 Y88.740 E7.04152 ; skirt
G1 X93.700 Y88.610 E7.05506 ; skirt
G1 X93.950 Y88.560 E7.06162 ; skirt
G1 X94.480 Y88.500 E7.07535 ; skirt
G1 X95.000 Y88.480 E7.08874 ; skirt
G1 X105.000 Y88.480 E7.34603 ; skirt
G1 X105.520 Y88.500 E7.35942 ; skirt
G1 X106.050 Y88.560 E7.37315 ; skirt
G1 X106.560 Y88.670 E7.38657 ; skirt
G1 X107.310 Y88.900 E7.40675 ; skirt
G1 X107.560 Y89.000 E7.41368 ; skirt
G1 X108.030 Y89.230 E7.42715 ; skirt
G1 X108.260 Y89.350 E7.43382 ; skirt
G1 X108.700 Y89.630 E7.44724 ; skirt
G1 X109.120 Y89.950 E7.46082 ; skirt
G1 X109.520 Y90.300 E7.47450 ; skirt
G1 X109.880 Y90.680 E7.48797 ; skirt
G1 X110.370 Y91.300 E7.50830 ; skirt
G1 X110.650 Y91.740 E7.52172 ; skirt
G1 X111.000 Y92.440 E7.54186 ; skirt
G1 X111.100 Y92.690 E7.54878 ; skirt
G1 X111.260 Y93.190 E7.56229 ; skirt
G1 X111.390 Y93.700 E7.57583 ; skirt
G1 X111.440 Y93.950 E7.58239 ; skirt
G1 X111.500 Y94.480 E7.59612 ; skirt
G1 X111.520 Y95.000 E7.60951 ; skirt
G1 X111.520 Y105.000 E7.86680 ; skirt
G1 X111.500 Y105.520 E7.88019 ; skirt
G1 X111.440 Y106.050 E7.89392 ; skirt
G1 X111.330 Y106.560 E7.90734 ; skirt
G1 X111.100 Y107.310 E7.92752 ; skirt
G1 X111.000 Y107.560 E7.93445 ; skirt
G1 X110.770 Y108.030 E7.94792 ; skirt
G1 X110.650 Y108.260 E7.95459 ; skirt
G1 X110.370 Y108.700 E7.96801 ; skirt
G1 X110.050 Y109.120 E7.98160 ; skirt
G1 X109.700 Y109.520 E7.99527 ; skirt
G1 X109.320 Y109.880 E8.00874 ; skirt
G1 X108.700 Y110.370 E8.02907 ; skirt
G1 X108.260 Y110.650 E8.04249 ; skirt
G1 X107.560 Y111.000 E8.06263 ; skirt
G1 X107.310 Y111.100 E8.06956 ; skirt
G1 X106.810 Y111.260 E8.08306 ; skirt
G1 X106.300 Y111.390 E8.09660 ; skirt
G1 X106.050 Y111.440 E8.10316 ; skirt
G1 X105.520 Y111.500 E8.11689 ; skirt
G1 X105.000 Y111.520 E8.13028 ; skirt
G1 X95.000 Y111.520 E8.38757 ; skirt
G1 X94.480 Y111.500 E8.40096 ; skirt
G1 X93.950 Y111.440 E8.41469 ; skirt
G1 X93.440 Y111.330 E8.42811 ; skirt
G1 X92.690 Y111.100 E8.44830 ; skirt
G1 X92.440 Y111.000 E8.45522 ; skirt
G1 X91.970 Y110.770 E8.46869 ; skirt
G1 X91.740 Y110.650 E8.47536 ; skirt
G1 X91.300 Y110.370 E8.48878 ; skirt
G1 X90.880 Y110.050 E8.50237 ; skirt
G1 X90.480 Y109.700 E8.51604 ; skirt
G1 X90.120 Y109.320 E8.52951 ; skirt
G1 X89.630 Y108.700 E8.54984 ; skirt
G1 X89.350 Y108.260 E8.56326 ; skirt
G1 X89.000 Y107.560 E8.58340 ; skirt
G1 X88.900 Y107.310 E8.59033 ; skirt
G1 X88.740 Y106.810 E8.60383 ; skirt
G1 X88.610 Y106.300 E8.61738 ; skirt
G1 X88.560 Y106.050 E8.62394 ; skirt
G1 X88.500 Y105.520 E8.63766 ; skirt
G1 X88.480 Y105.000 E8.65105 ; skirt
G1 X88.480 Y95.000 E8.90835 ; skirt
G1 X88.500 Y94.480 E8.92173 ; skirt
G1 X88.530 Y94.210 E8.92872 ; skirt
G1 X88.560 Y93.950 E8.93546 ; skirt
G1 X88.670 Y93.440 E8.94888 ; skirt
G1 X88.900 Y92.690 E8.96907 ; skirt
G1 X89.000 Y92.440 E8.97599 ; skirt
G1 X89.350 Y91.740 E8.99613 ; skirt
G1 X89.630 Y91.300 E9.00955 ; skirt
G1 X90.070 Y90.739 E9.02788 ; skirt
G1 F1800.000 E8.82788 ; retract
G92 E0 ; reset extrusion distance
G1 X96.156 Y103.844 F12000.000 ; move to first fill point
G1 F1800.000 E0.20000 ; compensate retraction
M204 S9000 ; adjust acceleration
G1 X96.156 Y103.075 F1113.228 E0.22070 ; fill
G1 X96.925 Y103.844 E0.24997 ; fill
G1 X97.694 Y103.844 E0.27066 ; fill
G1 X96.156 Y102.306 E0.32920 ; fill
G1 X96.156 Y101.537 E0.34989 ; fill
G1 X98.463 Y103.844 E0.43769 ; fill
G1 X99.231 Y103.844 E0.45838 ; fill
G1 X96.156 Y100.769 E0.57544 ; fill
G1 X96.156 Y100.000 E0.59613 ; fill
G1 X100.000 Y103.844 E0.74246 ; fill
G1 X100.769 Y103.844 E0.76315 ; fill
G1 X96.156 Y99.231 E0.93874 ; fill
G1 X96.156 Y98.462 E0.95943 ; fill
G1 X101.538 Y103.844 E1.16428 ; fill
G1 X102.306 Y103.844 E1.18498 ; fill
G1 X96.156 Y97.694 E1.41909 ; fill
G1 X96.156 Y96.925 E1.43978 ; fill
G1 X103.075 Y103.844 E1.70316 ; fill
G1 X103.844 Y103.844 E1.72385 ; fill
G1 X96.156 Y96.156 E2.01649 ; fill
G1 X96.925 Y96.156 E2.03718 ; fill
G1 X103.844 Y103.075 E2.30055 ; fill
G1 X103.844 Y102.306 E2.32125 ; fill
G1 X97.694 Y96.156 E2.55536 ; fill
G1 X98.462 Y96.156 E2.57605 ; fill
G1 X103.844 Y101.538 E2.78090 ; fill
G1 X103.844 Y100.769 E2.80160 ; fill
G1 X99.231 Y96.156 E2.97718 ; fill
G1 X100.000 Y96.156 E2.99788 ; fill
G1 X103.844 Y100.000 E3.14420 ; fill
G1 X103.844 Y99.231 E3.16489 ; fill
G1 X100.769 Y96.156 E3.28195 ; fill
G1 X101.537 Y96.156 E3.30265 ; fill
G1 X103.844 Y98.463 E3.39044 ; fill
G1 X103.844 Y97.694 E3.41114 ; fill
G1 X102.306 Y96.156 E3.46967 ; fill
G1 X103.075 Y96.156 E3.49036 ; fill
G1 X103.844 Y96.925 E3.51963 ; fill
G1 X103.844 Y96.156 E3.54033 ; fill
G1 X104.740 Y95.260 F12000.000 ; move to first perimeter point
M204 S9000 ; adjust acceleration
G1 X104.740 Y104.740 F890.583 E3.78426 ; perimeter
G1 X95.260 Y104.740 E4.02818 ; perimeter
G1 X95.260 Y95.260 E4.27211 ; perimeter
G1 X104.662 Y95.260 E4.51403 ; perimeter
G1 X104.480 Y95.710 F12000.000 ; move inwards before travel
G1 X95.779 Y104.221 ; move to first perimeter point
M204 S9000 ; adjust acceleration
G1 X95.779 Y95.779 F890.583 E4.73122 ; perimeter
G1 X104.221 Y95.779 E4.94840 ; perimeter
G1 X104.221 Y104.221 E5.16559 ; perimeter
G1 X95.857 Y104.221 E5.38077 ; perimeter
M106 S255 ; enable fan
G1 F1800.000 E5.18077 ; retract
G92 E0 ; reset extrusion distance
G1 Z0.900 F12000.000 ; move to next layer (1)
G1 X103.752 Y103.752 ; move to first fill point
G1 F1800.000 E0.20000 ; compensate retraction
M204 S9000 ; adjust acceleration
G1 X102.918 Y103.752 F600.000 E0.22434 ; fill
G1 X103.752 Y102.918 E0.25877 ; fill
G1 X103.752 Y102.084 E0.28311 ; fill
G1 X102.084 Y103.752 E0.35195 ; fill
G1 X101.250 Y103.752 E0.37629 ; fill
G1 X103.752 Y101.250 E0.47955 ; fill
G1 X103.752 Y100.417 E0.50389 ; fill
G1 X100.417 Y103.752 E0.64157 ; fill
G1 X99.583 Y103.752 E0.66591 ; fill
G1 X103.752 Y99.583 E0.83801 ; fill
G1 X103.752 Y98.749 E0.86235 ; fill
G1 X98.749 Y103.752 E1.06887 ; fill
